(G-CODE GENERATED BY FLATCAM v8.993 - www.flatcam.org - Version Date: 2020/06/05)

(Name: emir)
(Type: G-code from Geometry)
(Units: MM)

(Created on Tuesday, 01 September 2020 at 15:00)

(This preprocessor is the default preprocessor used by FlatCAM.)
(It is made to work with MACH3 compatible motion controllers.)

(TOOL DIAMETER: 0.1231 mm)
(Feedrate_XY: 120.0 mm/min)
(Feedrate_Z: 60.0 mm/min)
(Feedrate rapids 1500.0 mm/min)

(Z_Cut: -0.02 mm)
(Z_Move: 2.0 mm)
(Z Start: None mm)
(Z End: 15.0 mm)
(Steps per circle: 64)
(Preprocessor Geometry: default)

(X range:    5.3664 ...   87.5586  mm)
(Y range:    3.4496 ...   38.6486  mm)

(Spindle Speed: None RPM)
G21
G90
G94



G01 F120.00
G00 Z2.0000

M03
G00 X9.2000 Y8.2385
G01 F60.00
G01 Z-0.0200
G01 F120.00
G01 X11.2000 Y8.2385
G01 X11.2060 Y8.2387
G01 X11.2120 Y8.2396
G01 X11.2179 Y8.2411
G01 X11.2236 Y8.2431
G01 X11.2290 Y8.2457
G01 X11.2354 Y8.2497
G01 X11.2402 Y8.2534
G01 X11.2446 Y8.2576
G01 X11.2485 Y8.2621
G01 X11.2520 Y8.2671
G01 X11.2550 Y8.2723
G01 X11.2574 Y8.2778
G01 X11.2593 Y8.2836
G01 X11.2606 Y8.2895
G01 X11.2615 Y8.3000
G01 X11.2615 Y10.3000
G01 X11.2613 Y10.3060
G01 X11.2604 Y10.3120
G01 X11.2584 Y10.3193
G01 X11.2563 Y10.3249
G01 X11.2536 Y10.3303
G01 X11.2503 Y10.3354
G01 X11.2466 Y10.3402
G01 X11.2424 Y10.3446
G01 X11.2379 Y10.3485
G01 X11.2329 Y10.3520
G01 X11.2277 Y10.3550
G01 X11.2222 Y10.3574
G01 X11.2120 Y10.3604
G01 X11.2060 Y10.3613
G01 X11.2000 Y10.3615
G01 X9.2000 Y10.3615
G01 X9.1940 Y10.3613
G01 X9.1880 Y10.3604
G01 X9.1821 Y10.3589
G01 X9.1751 Y10.3563
G01 X9.1697 Y10.3536
G01 X9.1646 Y10.3503
G01 X9.1598 Y10.3466
G01 X9.1554 Y10.3424
G01 X9.1488 Y10.3342
G01 X9.1457 Y10.3290
G01 X9.1431 Y10.3236
G01 X9.1411 Y10.3179
G01 X9.1396 Y10.3120
G01 X9.1387 Y10.3060
G01 X9.1385 Y10.3000
G01 X9.1385 Y8.2985
G01 X9.1389 Y8.2925
G01 X9.1399 Y8.2865
G01 X9.1416 Y8.2807
G01 X9.1437 Y8.2751
G01 X9.1464 Y8.2697
G01 X9.1497 Y8.2646
G01 X9.1534 Y8.2598
G01 X9.1576 Y8.2554
G01 X9.1621 Y8.2515
G01 X9.1671 Y8.2480
G01 X9.1723 Y8.2450
G01 X9.1778 Y8.2426
G01 X9.1836 Y8.2407
G01 X9.1895 Y8.2394
G01 X9.2000 Y8.2385
G00 Z2.0000
G00 X11.7251 Y8.9890
G01 F60.00
G01 Z-0.0200
G01 F120.00
G01 X11.7593 Y8.8938
G01 X11.8038 Y8.7996
G01 X11.8574 Y8.7102
G01 X11.9194 Y8.6266
G01 X11.9894 Y8.5494
G01 X12.0666 Y8.4794
G01 X12.1502 Y8.4174
G01 X12.2396 Y8.3638
G01 X12.3338 Y8.3193
G01 X12.4318 Y8.2842
G01 X12.5329 Y8.2588
G01 X12.6359 Y8.2436
G01 X12.7400 Y8.2385
G01 X12.8441 Y8.2436
G01 X12.9471 Y8.2588
G01 X13.0482 Y8.2842
G01 X13.1462 Y8.3193
G01 X13.2404 Y8.3638
G01 X13.3298 Y8.4174
G01 X13.4134 Y8.4794
G01 X13.4906 Y8.5494
G01 X13.5606 Y8.6266
G01 X13.6226 Y8.7102
G01 X13.6762 Y8.7996
G01 X13.7207 Y8.8938
G01 X13.7558 Y8.9918
G01 X13.7812 Y9.0929
G01 X13.7964 Y9.1959
G01 X13.8015 Y9.3000
G01 X13.7964 Y9.4041
G01 X13.7812 Y9.5071
G01 X13.7558 Y9.6082
G01 X13.7207 Y9.7062
G01 X13.6762 Y9.8004
G01 X13.6226 Y9.8898
G01 X13.5606 Y9.9734
G01 X13.4906 Y10.0506
G01 X13.4134 Y10.1206
G01 X13.3298 Y10.1826
G01 X13.2404 Y10.2362
G01 X13.1462 Y10.2807
G01 X13.0482 Y10.3158
G01 X12.9471 Y10.3412
G01 X12.8441 Y10.3564
G01 X12.7400 Y10.3615
G01 X12.6359 Y10.3564
G01 X12.5329 Y10.3412
G01 X12.4318 Y10.3158
G01 X12.3338 Y10.2807
G01 X12.2396 Y10.2362
G01 X12.1502 Y10.1826
G01 X12.0666 Y10.1206
G01 X11.9894 Y10.0506
G01 X11.9194 Y9.9734
G01 X11.8574 Y9.8898
G01 X11.8038 Y9.8004
G01 X11.7593 Y9.7062
G01 X11.7242 Y9.6082
G01 X11.6988 Y9.5071
G01 X11.6836 Y9.4041
G01 X11.6785 Y9.3000
G01 X11.6836 Y9.1959
G01 X11.6988 Y9.0929
G01 X11.7234 Y8.9948
G01 X11.7251 Y8.9890
G00 Z2.0000
G00 X13.8766 Y8.3911
G01 F60.00
G01 Z-0.0200
G01 F120.00
G01 X13.8894 Y8.4027
G01 X13.8941 Y8.4065
G01 X13.9066 Y8.4155
G01 X13.9224 Y8.4248
G01 X13.9391 Y8.4325
G01 X13.9536 Y8.4377
G01 X13.9714 Y8.4423
G01 X13.9773 Y8.4435
G01 X13.9925 Y8.4456
G01 X14.0109 Y8.4464
G01 X14.0293 Y8.4454
G01 X14.0445 Y8.4431
G01 X14.0504 Y8.4420
G01 X14.0667 Y8.4376
G01 X14.0826 Y8.4318
G01 X14.0979 Y8.4246
G01 X14.1124 Y8.4161
G01 X14.1174 Y8.4127
G01 X14.1297 Y8.4035
G01 X14.1423 Y8.3922
G01 X14.3580 Y8.1765
G01 X14.5949 Y8.0182
G01 X14.8581 Y7.9092
G01 X15.1375 Y7.8536
G01 X15.4225 Y7.8536
G01 X15.7019 Y7.9092
G01 X15.9651 Y8.0182
G01 X16.2020 Y8.1765
G01 X16.4176 Y8.3921
G01 X16.4317 Y8.4047
G01 X16.4453 Y8.4146
G01 X16.4624 Y8.4248
G01 X16.4763 Y8.4314
G01 X16.4819 Y8.4336
G01 X16.4994 Y8.4394
G01 X16.5143 Y8.4430
G01 X16.5325 Y8.4456
G01 X16.5509 Y8.4464
G01 X16.5708 Y8.4452
G01 X16.5875 Y8.4426
G01 X16.6024 Y8.4389
G01 X16.6226 Y8.4318
G01 X16.6418 Y8.4225
G01 X16.6550 Y8.4145
G01 X16.6674 Y8.4053
G01 X16.6834 Y8.3911
G01 X16.8980 Y8.1765
G01 X17.1349 Y8.0182
G01 X17.3981 Y7.9092
G01 X17.6775 Y7.8536
G01 X17.9625 Y7.8536
G01 X18.2419 Y7.9092
G01 X18.5051 Y8.0182
G01 X18.7420 Y8.1765
G01 X18.9576 Y8.3921
G01 X18.9717 Y8.4047
G01 X18.9853 Y8.4146
G01 X19.0024 Y8.4248
G01 X19.0163 Y8.4314
G01 X19.0219 Y8.4336
G01 X19.0394 Y8.4394
G01 X19.0543 Y8.4430
G01 X19.0725 Y8.4456
G01 X19.0909 Y8.4464
G01 X19.1078 Y8.4455
G01 X19.1245 Y8.4431
G01 X19.1304 Y8.4420
G01 X19.1453 Y8.4381
G01 X19.1626 Y8.4318
G01 X19.1818 Y8.4225
G01 X19.1950 Y8.4145
G01 X19.2074 Y8.4053
G01 X19.2234 Y8.3911
G01 X19.4380 Y8.1765
G01 X19.6749 Y8.0182
G01 X19.9381 Y7.9092
G01 X20.2175 Y7.8536
G01 X20.5025 Y7.8536
G01 X20.7819 Y7.9092
G01 X21.0451 Y8.0182
G01 X21.2820 Y8.1765
G01 X21.4835 Y8.3780
G01 X21.5105 Y8.4183
G01 X21.5206 Y8.4319
G01 X21.5331 Y8.4457
G01 X21.5492 Y8.4599
G01 X21.5616 Y8.4691
G01 X21.5775 Y8.4786
G01 X21.5943 Y8.4865
G01 X21.6117 Y8.4928
G01 X21.6296 Y8.4973
G01 X21.6479 Y8.5000
G01 X21.6664 Y8.5009
G01 X21.6819 Y8.5002
G01 X21.6879 Y8.4996
G01 X21.7062 Y8.4966
G01 X21.7212 Y8.4928
G01 X21.7386 Y8.4865
G01 X21.7553 Y8.4786
G01 X21.7687 Y8.4707
G01 X21.7737 Y8.4674
G01 X21.7872 Y8.4571
G01 X21.7998 Y8.4457
G01 X21.8122 Y8.4319
G01 X21.9789 Y8.2289
G01 X22.1763 Y8.0669
G01 X22.4015 Y7.9465
G01 X22.6459 Y7.8724
G01 X22.9000 Y7.8473
G01 X23.1541 Y7.8724
G01 X23.3985 Y7.9465
G01 X23.6237 Y8.0669
G01 X23.8211 Y8.2289
G01 X23.9831 Y8.4263
G01 X24.1035 Y8.6515
G01 X24.1776 Y8.8959
G01 X24.1964 Y9.0863
G01 X24.1964 Y9.5137
G01 X24.1776 Y9.7041
G01 X24.1035 Y9.9485
G01 X24.0433 Y10.0611
G01 X23.9831 Y10.1737
G01 X23.8211 Y10.3711
G01 X23.6237 Y10.5331
G01 X23.3985 Y10.6535
G01 X23.1541 Y10.7276
G01 X22.9000 Y10.7527
G01 X22.6459 Y10.7276
G01 X22.4015 Y10.6535
G01 X22.1763 Y10.5331
G01 X21.9789 Y10.3711
G01 X21.8122 Y10.1681
G01 X21.7998 Y10.1543
G01 X21.7872 Y10.1429
G01 X21.7712 Y10.1309
G01 X21.7580 Y10.1229
G01 X21.7414 Y10.1147
G01 X21.7358 Y10.1124
G01 X21.7212 Y10.1072
G01 X21.7032 Y10.1027
G01 X21.6849 Y10.1000
G01 X21.6679 Y10.0991
G01 X21.6479 Y10.1000
G01 X21.6326 Y10.1022
G01 X21.6267 Y10.1034
G01 X21.6088 Y10.1082
G01 X21.5943 Y10.1135
G01 X21.5775 Y10.1214
G01 X21.5616 Y10.1309
G01 X21.5480 Y10.1410
G01 X21.5331 Y10.1543
G01 X21.5197 Y10.1692
G01 X21.5096 Y10.1829
G01 X21.4835 Y10.2220
G01 X21.2820 Y10.4235
G01 X21.0451 Y10.5818
G01 X20.7819 Y10.6908
G01 X20.5025 Y10.7464
G01 X20.2175 Y10.7464
G01 X19.9381 Y10.6908
G01 X19.6749 Y10.5818
G01 X19.4380 Y10.4235
G01 X19.2224 Y10.2079
G01 X19.2059 Y10.1935
G01 X19.1934 Y10.1845
G01 X19.1776 Y10.1752
G01 X19.1609 Y10.1675
G01 X19.1464 Y10.1623
G01 X19.1406 Y10.1606
G01 X19.1242 Y10.1568
G01 X19.1075 Y10.1544
G01 X19.0906 Y10.1536
G01 X19.0737 Y10.1544
G01 X19.0677 Y10.1550
G01 X19.0525 Y10.1574
G01 X19.0347 Y10.1619
G01 X19.0174 Y10.1682
G01 X19.0035 Y10.1747
G01 X18.9982 Y10.1775
G01 X18.9826 Y10.1873
G01 X18.9703 Y10.1965
G01 X18.9566 Y10.2089
G01 X18.7420 Y10.4235
G01 X18.5051 Y10.5818
G01 X18.2419 Y10.6908
G01 X17.9625 Y10.7464
G01 X17.6775 Y10.7464
G01 X17.3981 Y10.6908
G01 X17.1349 Y10.5818
G01 X16.8980 Y10.4235
G01 X16.6824 Y10.2079
G01 X16.6659 Y10.1935
G01 X16.6534 Y10.1845
G01 X16.6376 Y10.1752
G01 X16.6209 Y10.1675
G01 X16.6064 Y10.1623
G01 X16.6006 Y10.1606
G01 X16.5842 Y10.1568
G01 X16.5675 Y10.1544
G01 X16.5506 Y10.1536
G01 X16.5337 Y10.1544
G01 X16.5277 Y10.1550
G01 X16.5125 Y10.1574
G01 X16.4947 Y10.1619
G01 X16.4774 Y10.1682
G01 X16.4635 Y10.1747
G01 X16.4582 Y10.1775
G01 X16.4426 Y10.1873
G01 X16.4303 Y10.1965
G01 X16.4166 Y10.2089
G01 X16.2020 Y10.4235
G01 X15.9651 Y10.5818
G01 X15.7019 Y10.6908
G01 X15.4225 Y10.7464
G01 X15.1375 Y10.7464
G01 X14.8581 Y10.6908
G01 X14.5949 Y10.5818
G01 X14.3580 Y10.4235
G01 X14.1424 Y10.2079
G01 X14.1259 Y10.1935
G01 X14.1134 Y10.1845
G01 X14.0989 Y10.1759
G01 X14.0837 Y10.1686
G01 X14.0781 Y10.1664
G01 X14.0635 Y10.1614
G01 X14.0457 Y10.1570
G01 X14.0275 Y10.1544
G01 X14.0121 Y10.1537
G01 X13.9937 Y10.1544
G01 X13.9877 Y10.1550
G01 X13.9725 Y10.1574
G01 X13.9547 Y10.1619
G01 X13.9374 Y10.1682
G01 X13.9235 Y10.1747
G01 X13.9182 Y10.1775
G01 X13.9026 Y10.1873
G01 X13.8903 Y10.1965
G01 X13.8766 Y10.2089
G01 X13.6620 Y10.4235
G01 X13.4251 Y10.5818
G01 X13.1619 Y10.6908
G01 X12.8825 Y10.7464
G01 X12.5975 Y10.7464
G01 X12.3181 Y10.6908
G01 X12.0549 Y10.5818
G01 X11.8600 Y10.4515
G01 X11.8454 Y10.4428
G01 X11.8274 Y10.4341
G01 X11.8099 Y10.4279
G01 X11.7920 Y10.4234
G01 X11.7722 Y10.4205
G01 X11.7552 Y10.4198
G01 X11.7367 Y10.4207
G01 X11.7184 Y10.4234
G01 X11.7004 Y10.4279
G01 X11.6830 Y10.4341
G01 X11.6663 Y10.4420
G01 X11.6504 Y10.4515
G01 X11.6367 Y10.4616
G01 X11.6218 Y10.4750
G01 X11.6084 Y10.4899
G01 X11.5984 Y10.5036
G01 X11.5903 Y10.5168
G01 X11.5730 Y10.5492
G01 X11.5172 Y10.6172
G01 X11.4492 Y10.6730
G01 X11.3717 Y10.7144
G01 X11.2875 Y10.7399
G01 X11.1907 Y10.7495
G01 X9.2093 Y10.7495
G01 X9.1125 Y10.7399
G01 X9.0283 Y10.7144
G01 X8.9508 Y10.6730
G01 X8.8828 Y10.6172
G01 X8.8270 Y10.5492
G01 X8.7856 Y10.4717
G01 X8.7601 Y10.3875
G01 X8.7505 Y10.2907
G01 X8.7505 Y8.3093
G01 X8.7601 Y8.2125
G01 X8.7856 Y8.1283
G01 X8.8270 Y8.0508
G01 X8.8828 Y7.9828
G01 X8.9508 Y7.9270
G01 X9.0283 Y7.8856
G01 X9.1125 Y7.8601
G01 X9.2093 Y7.8505
G01 X11.1907 Y7.8505
G01 X11.2875 Y7.8601
G01 X11.3717 Y7.8856
G01 X11.4492 Y7.9270
G01 X11.5172 Y7.9828
G01 X11.5730 Y8.0508
G01 X11.5903 Y8.0832
G01 X11.5984 Y8.0964
G01 X11.6084 Y8.1101
G01 X11.6218 Y8.1250
G01 X11.6355 Y8.1374
G01 X11.6504 Y8.1485
G01 X11.6637 Y8.1565
G01 X11.6803 Y8.1647
G01 X11.6858 Y8.1670
G01 X11.7004 Y8.1721
G01 X11.7184 Y8.1766
G01 X11.7367 Y8.1793
G01 X11.7552 Y8.1802
G01 X11.7737 Y8.1793
G01 X11.7949 Y8.1760
G01 X11.8099 Y8.1721
G01 X11.8246 Y8.1670
G01 X11.8414 Y8.1593
G01 X11.8600 Y8.1485
G01 X12.0549 Y8.0182
G01 X12.3181 Y7.9092
G01 X12.5975 Y7.8536
G01 X12.8825 Y7.8536
G01 X13.1619 Y7.9092
G01 X13.4251 Y8.0182
G01 X13.6620 Y8.1765
G01 X13.8766 Y8.3911
G00 Z2.0000
G00 X14.2651 Y8.9890
G01 F60.00
G01 Z-0.0200
G01 F120.00
G01 X14.2993 Y8.8938
G01 X14.3438 Y8.7996
G01 X14.3974 Y8.7102
G01 X14.4594 Y8.6266
G01 X14.5294 Y8.5494
G01 X14.6066 Y8.4794
G01 X14.6902 Y8.4174
G01 X14.7796 Y8.3638
G01 X14.8738 Y8.3193
G01 X14.9718 Y8.2842
G01 X15.0729 Y8.2588
G01 X15.1759 Y8.2436
G01 X15.2800 Y8.2385
G01 X15.3841 Y8.2436
G01 X15.4871 Y8.2588
G01 X15.5882 Y8.2842
G01 X15.6862 Y8.3193
G01 X15.7804 Y8.3638
G01 X15.8698 Y8.4174
G01 X15.9534 Y8.4794
G01 X16.0306 Y8.5494
G01 X16.1006 Y8.6266
G01 X16.1626 Y8.7102
G01 X16.2162 Y8.7996
G01 X16.2607 Y8.8938
G01 X16.2958 Y8.9918
G01 X16.3212 Y9.0929
G01 X16.3364 Y9.1959
G01 X16.3415 Y9.3000
G01 X16.3364 Y9.4041
G01 X16.3212 Y9.5071
G01 X16.2958 Y9.6082
G01 X16.2607 Y9.7062
G01 X16.2162 Y9.8004
G01 X16.1626 Y9.8898
G01 X16.1006 Y9.9734
G01 X16.0306 Y10.0506
G01 X15.9534 Y10.1206
G01 X15.8698 Y10.1826
G01 X15.7804 Y10.2362
G01 X15.6862 Y10.2807
G01 X15.5882 Y10.3158
G01 X15.4871 Y10.3412
G01 X15.3841 Y10.3564
G01 X15.2800 Y10.3615
G01 X15.1759 Y10.3564
G01 X15.0729 Y10.3412
G01 X14.9718 Y10.3158
G01 X14.8738 Y10.2807
G01 X14.7796 Y10.2362
G01 X14.6902 Y10.1826
G01 X14.6066 Y10.1206
G01 X14.5294 Y10.0506
G01 X14.4594 Y9.9734
G01 X14.3974 Y9.8898
G01 X14.3438 Y9.8004
G01 X14.2993 Y9.7062
G01 X14.2642 Y9.6082
G01 X14.2388 Y9.5071
G01 X14.2236 Y9.4041
G01 X14.2185 Y9.3000
G01 X14.2236 Y9.1959
G01 X14.2388 Y9.0929
G01 X14.2634 Y8.9948
G01 X14.2651 Y8.9890
G00 Z2.0000
G00 X16.8051 Y8.9890
G01 F60.00
G01 Z-0.0200
G01 F120.00
G01 X16.8393 Y8.8938
G01 X16.8838 Y8.7996
G01 X16.9374 Y8.7102
G01 X16.9994 Y8.6266
G01 X17.0694 Y8.5494
G01 X17.1466 Y8.4794
G01 X17.2302 Y8.4174
G01 X17.3196 Y8.3638
G01 X17.4138 Y8.3193
G01 X17.5118 Y8.2842
G01 X17.6129 Y8.2588
G01 X17.7159 Y8.2436
G01 X17.8200 Y8.2385
G01 X17.9241 Y8.2436
G01 X18.0271 Y8.2588
G01 X18.1282 Y8.2842
G01 X18.2262 Y8.3193
G01 X18.3204 Y8.3638
G01 X18.4098 Y8.4174
G01 X18.4934 Y8.4794
G01 X18.5706 Y8.5494
G01 X18.6406 Y8.6266
G01 X18.7026 Y8.7102
G01 X18.7562 Y8.7996
G01 X18.8007 Y8.8938
G01 X18.8358 Y8.9918
G01 X18.8612 Y9.0929
G01 X18.8764 Y9.1959
G01 X18.8815 Y9.3000
G01 X18.8764 Y9.4041
G01 X18.8612 Y9.5071
G01 X18.8358 Y9.6082
G01 X18.8007 Y9.7062
G01 X18.7562 Y9.8004
G01 X18.7026 Y9.8898
G01 X18.6406 Y9.9734
G01 X18.5706 Y10.0506
G01 X18.4934 Y10.1206
G01 X18.4098 Y10.1826
G01 X18.3204 Y10.2362
G01 X18.2262 Y10.2807
G01 X18.1282 Y10.3158
G01 X18.0271 Y10.3412
G01 X17.9241 Y10.3564
G01 X17.8200 Y10.3615
G01 X17.7159 Y10.3564
G01 X17.6129 Y10.3412
G01 X17.5118 Y10.3158
G01 X17.4138 Y10.2807
G01 X17.3196 Y10.2362
G01 X17.2302 Y10.1826
G01 X17.1466 Y10.1206
G01 X17.0694 Y10.0506
G01 X16.9994 Y9.9734
G01 X16.9374 Y9.8898
G01 X16.8838 Y9.8004
G01 X16.8393 Y9.7062
G01 X16.8042 Y9.6082
G01 X16.7788 Y9.5071
G01 X16.7636 Y9.4041
G01 X16.7585 Y9.3000
G01 X16.7636 Y9.1959
G01 X16.7788 Y9.0929
G01 X16.8034 Y8.9948
G01 X16.8051 Y8.9890
G00 Z2.0000
G00 X19.3451 Y8.9890
G01 F60.00
G01 Z-0.0200
G01 F120.00
G01 X19.3793 Y8.8938
G01 X19.4238 Y8.7996
G01 X19.4774 Y8.7102
G01 X19.5394 Y8.6266
G01 X19.6094 Y8.5494
G01 X19.6866 Y8.4794
G01 X19.7702 Y8.4174
G01 X19.8596 Y8.3638
G01 X19.9538 Y8.3193
G01 X20.0518 Y8.2842
G01 X20.1529 Y8.2588
G01 X20.2559 Y8.2436
G01 X20.3600 Y8.2385
G01 X20.4641 Y8.2436
G01 X20.5671 Y8.2588
G01 X20.6682 Y8.2842
G01 X20.7662 Y8.3193
G01 X20.8604 Y8.3638
G01 X20.9498 Y8.4174
G01 X21.0334 Y8.4794
G01 X21.1106 Y8.5494
G01 X21.1806 Y8.6266
G01 X21.2426 Y8.7102
G01 X21.2962 Y8.7996
G01 X21.3407 Y8.8938
G01 X21.3758 Y8.9918
G01 X21.4012 Y9.0929
G01 X21.4164 Y9.1959
G01 X21.4215 Y9.3000
G01 X21.4164 Y9.4041
G01 X21.4012 Y9.5071
G01 X21.3758 Y9.6082
G01 X21.3407 Y9.7062
G01 X21.2962 Y9.8004
G01 X21.2426 Y9.8898
G01 X21.1806 Y9.9734
G01 X21.1106 Y10.0506
G01 X21.0334 Y10.1206
G01 X20.9498 Y10.1826
G01 X20.8604 Y10.2362
G01 X20.7662 Y10.2807
G01 X20.6682 Y10.3158
G01 X20.5671 Y10.3412
G01 X20.4641 Y10.3564
G01 X20.3600 Y10.3615
G01 X20.2559 Y10.3564
G01 X20.1529 Y10.3412
G01 X20.0518 Y10.3158
G01 X19.9538 Y10.2807
G01 X19.8596 Y10.2362
G01 X19.7702 Y10.1826
G01 X19.6866 Y10.1206
G01 X19.6094 Y10.0506
G01 X19.5394 Y9.9734
G01 X19.4774 Y9.8898
G01 X19.4238 Y9.8004
G01 X19.3793 Y9.7062
G01 X19.3442 Y9.6082
G01 X19.3188 Y9.5071
G01 X19.3036 Y9.4041
G01 X19.2985 Y9.3000
G01 X19.3036 Y9.1959
G01 X19.3188 Y9.0929
G01 X19.3434 Y8.9948
G01 X19.3451 Y8.9890
G00 Z2.0000
G00 X22.0286 Y8.8825
G01 F60.00
G01 Z-0.0200
G01 F120.00
G01 X22.0568 Y8.8040
G01 X22.0591 Y8.7984
G01 X22.0961 Y8.7203
G01 X22.1405 Y8.6461
G01 X22.1438 Y8.6411
G01 X22.1954 Y8.5717
G01 X22.2554 Y8.5054
G01 X22.3217 Y8.4454
G01 X22.3911 Y8.3938
G01 X22.3961 Y8.3905
G01 X22.4703 Y8.3461
G01 X22.5484 Y8.3091
G01 X22.5540 Y8.3068
G01 X22.6325 Y8.2786
G01 X22.6383 Y8.2769
G01 X22.7222 Y8.2560
G01 X22.8107 Y8.2428
G01 X22.9000 Y8.2385
G01 X22.9863 Y8.2426
G01 X22.9923 Y8.2432
G01 X23.0749 Y8.2554
G01 X23.0808 Y8.2566
G01 X23.1646 Y8.2777
G01 X23.2460 Y8.3068
G01 X23.2516 Y8.3091
G01 X23.3297 Y8.3461
G01 X23.4064 Y8.3921
G01 X23.4783 Y8.4454
G01 X23.5446 Y8.5054
G01 X23.6046 Y8.5717
G01 X23.6579 Y8.6436
G01 X23.7039 Y8.7203
G01 X23.7422 Y8.8012
G01 X23.7723 Y8.8854
G01 X23.7934 Y8.9692
G01 X23.7946 Y8.9751
G01 X23.8072 Y9.0607
G01 X23.8115 Y9.1485
G01 X23.8115 Y9.4500
G01 X23.8074 Y9.5363
G01 X23.8068 Y9.5423
G01 X23.7946 Y9.6249
G01 X23.7934 Y9.6308
G01 X23.7723 Y9.7146
G01 X23.7432 Y9.7960
G01 X23.7409 Y9.8016
G01 X23.7039 Y9.8797
G01 X23.6579 Y9.9564
G01 X23.6046 Y10.0283
G01 X23.5446 Y10.0946
G01 X23.4783 Y10.1546
G01 X23.4064 Y10.2079
G01 X23.3297 Y10.2539
G01 X23.2488 Y10.2922
G01 X23.1646 Y10.3223
G01 X23.0778 Y10.3440
G01 X22.9893 Y10.3572
G01 X22.9000 Y10.3615
G01 X22.8107 Y10.3572
G01 X22.7222 Y10.3440
G01 X22.6354 Y10.3223
G01 X22.5512 Y10.2922
G01 X22.4703 Y10.2539
G01 X22.3936 Y10.2079
G01 X22.3217 Y10.1546
G01 X22.2554 Y10.0946
G01 X22.1954 Y10.0283
G01 X22.1438 Y9.9589
G01 X22.1405 Y9.9539
G01 X22.0976 Y9.8823
G01 X22.0947 Y9.8770
G01 X22.0578 Y9.7988
G01 X22.0273 Y9.7132
G01 X22.0060 Y9.6278
G01 X21.9927 Y9.5378
G01 X21.9885 Y9.4500
G01 X21.9885 Y9.1500
G01 X21.9928 Y9.0607
G01 X22.0054 Y8.9751
G01 X22.0066 Y8.9692
G01 X22.0269 Y8.8883
G01 X22.0286 Y8.8825
G00 Z2.0000
G00 X15.9761 Y4.6940
G01 F60.00
G01 Z-0.0200
G01 F120.00
G01 X16.3000 Y5.1799
G01 X16.6248 Y4.6928
G01 X16.6363 Y4.6773
G01 X16.6502 Y4.6619
G01 X16.6656 Y4.6480
G01 X16.6822 Y4.6356
G01 X16.7000 Y4.6249
G01 X16.7188 Y4.6160
G01 X16.7384 Y4.6090
G01 X16.7615 Y4.6034
G01 X16.7805 Y4.6007
G01 X16.8028 Y4.5999
G01 X16.8205 Y4.6008
G01 X16.8381 Y4.6033
G01 X16.8583 Y4.6080
G01 X16.8808 Y4.6158
G01 X16.8996 Y4.6247
G01 X16.9174 Y4.6353
G01 X16.9341 Y4.6477
G01 X16.9495 Y4.6616
G01 X16.9634 Y4.6770
G01 X16.9758 Y4.6937
G01 X16.9872 Y4.7128
G01 X16.9965 Y4.7331
G01 X17.0024 Y4.7498
G01 X17.0069 Y4.7670
G01 X17.0106 Y4.7905
G01 X17.0116 Y4.8112
G01 X17.0106 Y4.8320
G01 X17.0069 Y4.8554
G01 X17.0026 Y4.8726
G01 X16.9967 Y4.8894
G01 X16.9874 Y4.9097
G01 X16.9761 Y4.9288
G01 X16.5543 Y5.5614
G01 X16.9761 Y6.1940
G01 X16.9867 Y6.2119
G01 X16.9967 Y6.2335
G01 X17.0026 Y6.2502
G01 X17.0076 Y6.2704
G01 X17.0106 Y6.2909
G01 X17.0116 Y6.3117
G01 X17.0106 Y6.3324
G01 X17.0075 Y6.3529
G01 X17.0024 Y6.3731
G01 X16.9965 Y6.3898
G01 X16.9872 Y6.4100
G01 X16.9775 Y6.4266
G01 X16.9741 Y6.4317
G01 X16.9615 Y6.4481
G01 X16.9495 Y6.4612
G01 X16.9341 Y6.4752
G01 X16.9174 Y6.4875
G01 X16.8982 Y6.4989
G01 X16.8808 Y6.5070
G01 X16.8641 Y6.5131
G01 X16.8411 Y6.5190
G01 X16.8205 Y6.5221
G01 X16.8028 Y6.5230
G01 X16.7968 Y6.5230
G01 X16.7760 Y6.5216
G01 X16.7585 Y6.5189
G01 X16.7384 Y6.5139
G01 X16.7188 Y6.5069
G01 X16.7027 Y6.4993
G01 X16.6974 Y6.4965
G01 X16.6810 Y6.4864
G01 X16.6656 Y6.4749
G01 X16.6524 Y6.4630
G01 X16.6363 Y6.4455
G01 X16.6239 Y6.4288
G01 X16.3000 Y5.9429
G01 X15.9752 Y6.4301
G01 X15.9637 Y6.4455
G01 X15.9498 Y6.4609
G01 X15.9344 Y6.4749
G01 X15.9178 Y6.4873
G01 X15.9000 Y6.4980
G01 X15.8812 Y6.5069
G01 X15.8616 Y6.5139
G01 X15.8385 Y6.5195
G01 X15.8195 Y6.5221
G01 X15.7972 Y6.5230
G01 X15.7795 Y6.5221
G01 X15.7619 Y6.5195
G01 X15.7417 Y6.5148
G01 X15.7192 Y6.5070
G01 X15.7004 Y6.4982
G01 X15.6826 Y6.4875
G01 X15.6659 Y6.4752
G01 X15.6505 Y6.4612
G01 X15.6366 Y6.4459
G01 X15.6242 Y6.4292
G01 X15.6128 Y6.4100
G01 X15.6035 Y6.3898
G01 X15.5976 Y6.3731
G01 X15.5931 Y6.3559
G01 X15.5894 Y6.3324
G01 X15.5884 Y6.3117
G01 X15.5894 Y6.2909
G01 X15.5931 Y6.2674
G01 X15.5974 Y6.2502
G01 X15.6033 Y6.2335
G01 X15.6126 Y6.2132
G01 X15.6239 Y6.1940
G01 X16.0457 Y5.5614
G01 X15.6239 Y4.9288
G01 X15.6140 Y4.9123
G01 X15.6044 Y4.8922
G01 X15.5984 Y4.8755
G01 X15.5966 Y4.8697
G01 X15.5919 Y4.8495
G01 X15.5894 Y4.8320
G01 X15.5884 Y4.8112
G01 X15.5894 Y4.7905
G01 X15.5925 Y4.7699
G01 X15.5985 Y4.7469
G01 X15.6046 Y4.7302
G01 X15.6135 Y4.7115
G01 X15.6259 Y4.6912
G01 X15.6366 Y4.6770
G01 X15.6505 Y4.6616
G01 X15.6659 Y4.6477
G01 X15.6801 Y4.6371
G01 X15.7004 Y4.6247
G01 X15.7192 Y4.6158
G01 X15.7359 Y4.6098
G01 X15.7589 Y4.6038
G01 X15.7795 Y4.6008
G01 X15.7972 Y4.5999
G01 X15.8210 Y4.6008
G01 X15.8444 Y4.6046
G01 X15.8616 Y4.6090
G01 X15.8812 Y4.6160
G01 X15.9026 Y4.6264
G01 X15.9178 Y4.6356
G01 X15.9344 Y4.6480
G01 X15.9519 Y4.6641
G01 X15.9637 Y4.6773
G01 X15.9761 Y4.6940
G00 Z2.0000
G00 X29.4200 Y8.3885
G01 F60.00
G01 Z-0.0200
G01 F120.00
G01 X31.1200 Y8.3885
G01 X31.1260 Y8.3887
G01 X31.1320 Y8.3896
G01 X31.1379 Y8.3911
G01 X31.1449 Y8.3937
G01 X31.1503 Y8.3964
G01 X31.1554 Y8.3997
G01 X31.1602 Y8.4034
G01 X31.1646 Y8.4076
G01 X31.1712 Y8.4158
G01 X31.1743 Y8.4210
G01 X31.1769 Y8.4264
G01 X31.1789 Y8.4321
G01 X31.1804 Y8.4380
G01 X31.1813 Y8.4440
G01 X31.1815 Y8.4500
G01 X31.1815 Y10.1500
G01 X31.1813 Y10.1560
G01 X31.1804 Y10.1620
G01 X31.1789 Y10.1679
G01 X31.1769 Y10.1736
G01 X31.1743 Y10.1790
G01 X31.1712 Y10.1842
G01 X31.1676 Y10.1890
G01 X31.1624 Y10.1946
G01 X31.1579 Y10.1985
G01 X31.1529 Y10.2020
G01 X31.1477 Y10.2050
G01 X31.1422 Y10.2074
G01 X31.1320 Y10.2104
G01 X31.1260 Y10.2113
G01 X31.1200 Y10.2115
G01 X29.4200 Y10.2115
G01 X29.4140 Y10.2113
G01 X29.4080 Y10.2104
G01 X29.4021 Y10.2089
G01 X29.3951 Y10.2063
G01 X29.3897 Y10.2036
G01 X29.3846 Y10.2003
G01 X29.3798 Y10.1966
G01 X29.3754 Y10.1924
G01 X29.3715 Y10.1879
G01 X29.3680 Y10.1829
G01 X29.3650 Y10.1777
G01 X29.3626 Y10.1722
G01 X29.3607 Y10.1664
G01 X29.3594 Y10.1605
G01 X29.3585 Y10.1500
G01 X29.3585 Y8.4485
G01 X29.3589 Y8.4425
G01 X29.3599 Y8.4365
G01 X29.3616 Y8.4307
G01 X29.3637 Y8.4251
G01 X29.3664 Y8.4197
G01 X29.3697 Y8.4146
G01 X29.3765 Y8.4065
G01 X29.3810 Y8.4024
G01 X29.3858 Y8.3988
G01 X29.3910 Y8.3957
G01 X29.3964 Y8.3931
G01 X29.4021 Y8.3911
G01 X29.4080 Y8.3896
G01 X29.4140 Y8.3887
G01 X29.4200 Y8.3885
G00 Z2.0000
G00 X32.8130 Y8.3885
G01 F60.00
G01 Z-0.0200
G01 F120.00
G01 X32.8993 Y8.3928
G01 X32.9878 Y8.4060
G01 X33.0746 Y8.4277
G01 X33.1588 Y8.4578
G01 X33.2397 Y8.4961
G01 X33.3164 Y8.5421
G01 X33.3883 Y8.5954
G01 X33.4546 Y8.6554
G01 X33.5146 Y8.7217
G01 X33.5679 Y8.7936
G01 X33.6139 Y8.8703
G01 X33.6522 Y8.9512
G01 X33.6823 Y9.0354
G01 X33.7040 Y9.1222
G01 X33.7172 Y9.2107
G01 X33.7215 Y9.3000
G01 X33.7172 Y9.3893
G01 X33.7040 Y9.4778
G01 X33.6823 Y9.5646
G01 X33.6522 Y9.6488
G01 X33.6139 Y9.7297
G01 X33.5679 Y9.8064
G01 X33.5146 Y9.8783
G01 X33.4546 Y9.9446
G01 X33.3883 Y10.0046
G01 X33.3164 Y10.0579
G01 X33.2397 Y10.1039
G01 X33.1588 Y10.1422
G01 X33.0746 Y10.1723
G01 X32.9878 Y10.1940
G01 X32.8993 Y10.2072
G01 X32.8100 Y10.2115
G01 X32.7207 Y10.2072
G01 X32.6322 Y10.1940
G01 X32.5454 Y10.1723
G01 X32.4612 Y10.1422
G01 X32.3803 Y10.1039
G01 X32.3036 Y10.0579
G01 X32.2317 Y10.0046
G01 X32.1654 Y9.9446
G01 X32.1054 Y9.8783
G01 X32.0521 Y9.8064
G01 X32.0061 Y9.7297
G01 X31.9678 Y9.6488
G01 X31.9377 Y9.5646
G01 X31.9160 Y9.4778
G01 X31.9028 Y9.3893
G01 X31.8985 Y9.3000
G01 X31.9028 Y9.2107
G01 X31.9160 Y9.1222
G01 X31.9377 Y9.0354
G01 X31.9678 Y8.9512
G01 X32.0061 Y8.8703
G01 X32.0521 Y8.7936
G01 X32.1054 Y8.7217
G01 X32.1654 Y8.6554
G01 X32.2317 Y8.5954
G01 X32.3036 Y8.5421
G01 X32.3803 Y8.4961
G01 X32.4612 Y8.4578
G01 X32.5454 Y8.4277
G01 X32.6322 Y8.4060
G01 X32.7207 Y8.3928
G01 X32.8070 Y8.3885
G01 X32.8130 Y8.3885
G00 Z2.0000
G00 X35.3530 Y8.3885
G01 F60.00
G01 Z-0.0200
G01 F120.00
G01 X35.4393 Y8.3928
G01 X35.5278 Y8.4060
G01 X35.6146 Y8.4277
G01 X35.6988 Y8.4578
G01 X35.7797 Y8.4961
G01 X35.8564 Y8.5421
G01 X35.9283 Y8.5954
G01 X35.9946 Y8.6554
G01 X36.0546 Y8.7217
G01 X36.1079 Y8.7936
G01 X36.1539 Y8.8703
G01 X36.1922 Y8.9512
G01 X36.2223 Y9.0354
G01 X36.2440 Y9.1222
G01 X36.2572 Y9.2107
G01 X36.2615 Y9.3000
G01 X36.2572 Y9.3893
G01 X36.2440 Y9.4778
G01 X36.2223 Y9.5646
G01 X36.1922 Y9.6488
G01 X36.1539 Y9.7297
G01 X36.1079 Y9.8064
G01 X36.0546 Y9.8783
G01 X35.9946 Y9.9446
G01 X35.9283 Y10.0046
G01 X35.8564 Y10.0579
G01 X35.7797 Y10.1039
G01 X35.6988 Y10.1422
G01 X35.6146 Y10.1723
G01 X35.5278 Y10.1940
G01 X35.4393 Y10.2072
G01 X35.3500 Y10.2115
G01 X35.2607 Y10.2072
G01 X35.1722 Y10.1940
G01 X35.0854 Y10.1723
G01 X35.0012 Y10.1422
G01 X34.9203 Y10.1039
G01 X34.8436 Y10.0579
G01 X34.7717 Y10.0046
G01 X34.7054 Y9.9446
G01 X34.6454 Y9.8783
G01 X34.5921 Y9.8064
G01 X34.5461 Y9.7297
G01 X34.5078 Y9.6488
G01 X34.4777 Y9.5646
G01 X34.4560 Y9.4778
G01 X34.4428 Y9.3893
G01 X34.4385 Y9.3000
G01 X34.4428 Y9.2107
G01 X34.4560 Y9.1222
G01 X34.4777 Y9.0354
G01 X34.5078 Y8.9512
G01 X34.5461 Y8.8703
G01 X34.5921 Y8.7936
G01 X34.6454 Y8.7217
G01 X34.7054 Y8.6554
G01 X34.7717 Y8.5954
G01 X34.8436 Y8.5421
G01 X34.9203 Y8.4961
G01 X35.0012 Y8.4578
G01 X35.0854 Y8.4277
G01 X35.1722 Y8.4060
G01 X35.2607 Y8.3928
G01 X35.3470 Y8.3885
G01 X35.3530 Y8.3885
G00 Z2.0000
G00 X37.8930 Y8.2385
G01 F60.00
G01 Z-0.0200
G01 F120.00
G01 X37.9941 Y8.2436
G01 X38.0971 Y8.2588
G01 X38.1982 Y8.2842
G01 X38.2962 Y8.3193
G01 X38.3904 Y8.3638
G01 X38.4798 Y8.4174
G01 X38.5634 Y8.4794
G01 X38.6406 Y8.5494
G01 X38.7106 Y8.6266
G01 X38.7726 Y8.7102
G01 X38.8262 Y8.7996
G01 X38.8707 Y8.8938
G01 X38.9058 Y8.9918
G01 X38.9312 Y9.0929
G01 X38.9464 Y9.1959
G01 X38.9515 Y9.3000
G01 X38.9464 Y9.4041
G01 X38.9312 Y9.5071
G01 X38.9058 Y9.6082
G01 X38.8707 Y9.7062
G01 X38.8262 Y9.8004
G01 X38.7726 Y9.8898
G01 X38.7106 Y9.9734
G01 X38.6406 Y10.0506
G01 X38.5634 Y10.1206
G01 X38.4798 Y10.1826
G01 X38.3904 Y10.2362
G01 X38.2962 Y10.2807
G01 X38.1982 Y10.3158
G01 X38.0971 Y10.3412
G01 X37.9941 Y10.3564
G01 X37.8900 Y10.3615
G01 X37.7859 Y10.3564
G01 X37.6829 Y10.3412
G01 X37.5818 Y10.3158
G01 X37.4838 Y10.2807
G01 X37.3896 Y10.2362
G01 X37.3002 Y10.1826
G01 X37.2166 Y10.1206
G01 X37.1394 Y10.0506
G01 X37.0694 Y9.9734
G01 X37.0074 Y9.8898
G01 X36.9538 Y9.8004
G01 X36.9093 Y9.7062
G01 X36.8742 Y9.6082
G01 X36.8488 Y9.5071
G01 X36.8336 Y9.4041
G01 X36.8285 Y9.3000
G01 X36.8336 Y9.1959
G01 X36.8488 Y9.0929
G01 X36.8742 Y8.9918
G01 X36.9093 Y8.8938
G01 X36.9538 Y8.7996
G01 X37.0074 Y8.7102
G01 X37.0694 Y8.6266
G01 X37.1394 Y8.5494
G01 X37.2166 Y8.4794
G01 X37.3002 Y8.4174
G01 X37.3896 Y8.3638
G01 X37.4838 Y8.3193
G01 X37.5818 Y8.2842
G01 X37.6829 Y8.2588
G01 X37.7859 Y8.2436
G01 X37.8870 Y8.2385
G01 X37.8930 Y8.2385
G00 Z2.0000
G00 X39.0266 Y8.3911
G01 F60.00
G01 Z-0.0200
G01 F120.00
G01 X39.0394 Y8.4027
G01 X39.0441 Y8.4065
G01 X39.0566 Y8.4155
G01 X39.0724 Y8.4248
G01 X39.0919 Y8.4336
G01 X39.1065 Y8.4386
G01 X39.1243 Y8.4430
G01 X39.1455 Y8.4458
G01 X39.1609 Y8.4464
G01 X39.1793 Y8.4454
G01 X39.1975 Y8.4426
G01 X39.2124 Y8.4389
G01 X39.2326 Y8.4318
G01 X39.2492 Y8.4239
G01 X39.2650 Y8.4145
G01 X39.2797 Y8.4035
G01 X39.2912 Y8.3932
G01 X39.5080 Y8.1765
G01 X39.7449 Y8.0182
G01 X40.0081 Y7.9092
G01 X40.2875 Y7.8536
G01 X40.5725 Y7.8536
G01 X40.8519 Y7.9092
G01 X41.1151 Y8.0182
G01 X41.3520 Y8.1765
G01 X41.5676 Y8.3921
G01 X41.5841 Y8.4065
G01 X41.5966 Y8.4155
G01 X41.6124 Y8.4248
G01 X41.6291 Y8.4325
G01 X41.6436 Y8.4377
G01 X41.6494 Y8.4394
G01 X41.6658 Y8.4432
G01 X41.6825 Y8.4456
G01 X41.6994 Y8.4464
G01 X41.7163 Y8.4456
G01 X41.7223 Y8.4450
G01 X41.7375 Y8.4426
G01 X41.7553 Y8.4381
G01 X41.7726 Y8.4318
G01 X41.7865 Y8.4253
G01 X41.7918 Y8.4225
G01 X41.8074 Y8.4127
G01 X41.8197 Y8.4035
G01 X41.8334 Y8.3911
G01 X42.0480 Y8.1765
G01 X42.2849 Y8.0182
G01 X42.5481 Y7.9092
G01 X42.8275 Y7.8536
G01 X43.1125 Y7.8536
G01 X43.3919 Y7.9092
G01 X43.6551 Y8.0182
G01 X43.8920 Y8.1765
G01 X44.0935 Y8.3780
G01 X44.2518 Y8.6149
G01 X44.3608 Y8.8781
G01 X44.4164 Y9.1575
G01 X44.4164 Y9.4425
G01 X44.3608 Y9.7219
G01 X44.2518 Y9.9851
G01 X44.1114 Y10.1952
G01 X44.0935 Y10.2220
G01 X43.8920 Y10.4235
G01 X43.6551 Y10.5818
G01 X43.3919 Y10.6908
G01 X43.1125 Y10.7464
G01 X42.8275 Y10.7464
G01 X42.5481 Y10.6908
G01 X42.2849 Y10.5818
G01 X42.0480 Y10.4235
G01 X41.8324 Y10.2079
G01 X41.8159 Y10.1935
G01 X41.8034 Y10.1845
G01 X41.7889 Y10.1759
G01 X41.7737 Y10.1686
G01 X41.7681 Y10.1664
G01 X41.7535 Y10.1614
G01 X41.7357 Y10.1570
G01 X41.7175 Y10.1544
G01 X41.7021 Y10.1537
G01 X41.6837 Y10.1544
G01 X41.6777 Y10.1550
G01 X41.6625 Y10.1574
G01 X41.6447 Y10.1619
G01 X41.6274 Y10.1682
G01 X41.6135 Y10.1747
G01 X41.6082 Y10.1775
G01 X41.5926 Y10.1873
G01 X41.5803 Y10.1965
G01 X41.5666 Y10.2089
G01 X41.3520 Y10.4235
G01 X41.1151 Y10.5818
G01 X40.8519 Y10.6908
G01 X40.5725 Y10.7464
G01 X40.2875 Y10.7464
G01 X40.0081 Y10.6908
G01 X39.7449 Y10.5818
G01 X39.5080 Y10.4235
G01 X39.2924 Y10.2079
G01 X39.2759 Y10.1935
G01 X39.2634 Y10.1845
G01 X39.2476 Y10.1752
G01 X39.2309 Y10.1675
G01 X39.2164 Y10.1623
G01 X39.1986 Y10.1577
G01 X39.1927 Y10.1565
G01 X39.1775 Y10.1544
G01 X39.1591 Y10.1536
G01 X39.1407 Y10.1546
G01 X39.1255 Y10.1569
G01 X39.1047 Y10.1619
G01 X39.0874 Y10.1682
G01 X39.0735 Y10.1747
G01 X39.0682 Y10.1775
G01 X39.0526 Y10.1873
G01 X39.0403 Y10.1965
G01 X39.0266 Y10.2089
G01 X38.8120 Y10.4235
G01 X38.5751 Y10.5818
G01 X38.3119 Y10.6908
G01 X38.0325 Y10.7464
G01 X37.7475 Y10.7464
G01 X37.4681 Y10.6908
G01 X37.2049 Y10.5818
G01 X36.9680 Y10.4235
G01 X36.7665 Y10.2220
G01 X36.6849 Y10.1000
G01 X36.6756 Y10.0876
G01 X36.6653 Y10.0761
G01 X36.6495 Y10.0614
G01 X36.6346 Y10.0504
G01 X36.6213 Y10.0424
G01 X36.6047 Y10.0342
G01 X36.5992 Y10.0319
G01 X36.5845 Y10.0267
G01 X36.5666 Y10.0222
G01 X36.5483 Y10.0195
G01 X36.5313 Y10.0186
G01 X36.5113 Y10.0195
G01 X36.4960 Y10.0217
G01 X36.4901 Y10.0229
G01 X36.4722 Y10.0277
G01 X36.4576 Y10.0330
G01 X36.4409 Y10.0409
G01 X36.4250 Y10.0504
G01 X36.4125 Y10.0596
G01 X36.3964 Y10.0739
G01 X36.3840 Y10.0876
G01 X36.3738 Y10.1012
G01 X36.3570 Y10.1264
G01 X36.1764 Y10.3070
G01 X35.9641 Y10.4488
G01 X35.7281 Y10.5466
G01 X35.4777 Y10.5964
G01 X35.2223 Y10.5964
G01 X34.9719 Y10.5466
G01 X34.7359 Y10.4488
G01 X34.5236 Y10.3070
G01 X34.3430 Y10.1264
G01 X34.2360 Y9.9662
G01 X34.2238 Y9.9503
G01 X34.2134 Y9.9389
G01 X34.2008 Y9.9274
G01 X34.1848 Y9.9154
G01 X34.1715 Y9.9074
G01 X34.1549 Y9.8992
G01 X34.1494 Y9.8969
G01 X34.1348 Y9.8917
G01 X34.1168 Y9.8873
G01 X34.0985 Y9.8845
G01 X34.0830 Y9.8837
G01 X34.0645 Y9.8843
G01 X34.0585 Y9.8849
G01 X34.0417 Y9.8876
G01 X34.0224 Y9.8927
G01 X34.0078 Y9.8980
G01 X33.9911 Y9.9059
G01 X33.9752 Y9.9154
G01 X33.9592 Y9.9274
G01 X33.9466 Y9.9389
G01 X33.9362 Y9.9503
G01 X33.9240 Y9.9662
G01 X33.8170 Y10.1264
G01 X33.6364 Y10.3070
G01 X33.4241 Y10.4488
G01 X33.1881 Y10.5466
G01 X32.9377 Y10.5964
G01 X32.6823 Y10.5964
G01 X32.4319 Y10.5466
G01 X32.1959 Y10.4488
G01 X31.9836 Y10.3070
G01 X31.8638 Y10.1872
G01 X31.8512 Y10.1758
G01 X31.8375 Y10.1656
G01 X31.8204 Y10.1553
G01 X31.8009 Y10.1463
G01 X31.7863 Y10.1411
G01 X31.7713 Y10.1373
G01 X31.7500 Y10.1339
G01 X31.7315 Y10.1330
G01 X31.7100 Y10.1343
G01 X31.6918 Y10.1373
G01 X31.6768 Y10.1411
G01 X31.6622 Y10.1463
G01 X31.6426 Y10.1553
G01 X31.6267 Y10.1648
G01 X31.6119 Y10.1758
G01 X31.5981 Y10.1882
G01 X31.5857 Y10.2020
G01 X31.5764 Y10.2144
G01 X31.5731 Y10.2194
G01 X31.5645 Y10.2340
G01 X31.5573 Y10.2494
G01 X31.5515 Y10.2654
G01 X31.5344 Y10.3217
G01 X31.4930 Y10.3992
G01 X31.4372 Y10.4672
G01 X31.3692 Y10.5230
G01 X31.2917 Y10.5644
G01 X31.2075 Y10.5899
G01 X31.1107 Y10.5995
G01 X29.4293 Y10.5995
G01 X29.3325 Y10.5899
G01 X29.2483 Y10.5644
G01 X29.1708 Y10.5230
G01 X29.1028 Y10.4672
G01 X29.0470 Y10.3992
G01 X29.0056 Y10.3217
G01 X28.9801 Y10.2375
G01 X28.9705 Y10.1407
G01 X28.9705 Y8.4593
G01 X28.9801 Y8.3625
G01 X29.0056 Y8.2783
G01 X29.0470 Y8.2008
G01 X29.1028 Y8.1328
G01 X29.1708 Y8.0770
G01 X29.2483 Y8.0356
G01 X29.3325 Y8.0101
G01 X29.4293 Y8.0005
G01 X31.1107 Y8.0005
G01 X31.2075 Y8.0101
G01 X31.2917 Y8.0356
G01 X31.3692 Y8.0770
G01 X31.4372 Y8.1328
G01 X31.4930 Y8.2008
G01 X31.5344 Y8.2783
G01 X31.5515 Y8.3346
G01 X31.5585 Y8.3533
G01 X31.5652 Y8.3673
G01 X31.5731 Y8.3806
G01 X31.5764 Y8.3856
G01 X31.5867 Y8.3992
G01 X31.5992 Y8.4128
G01 X31.6142 Y8.4260
G01 X31.6293 Y8.4368
G01 X31.6426 Y8.4447
G01 X31.6566 Y8.4514
G01 X31.6768 Y8.4589
G01 X31.6947 Y8.4634
G01 X31.7130 Y8.4661
G01 X31.7315 Y8.4670
G01 X31.7530 Y8.4657
G01 X31.7683 Y8.4634
G01 X31.7863 Y8.4589
G01 X31.8065 Y8.4514
G01 X31.8204 Y8.4447
G01 X31.8363 Y8.4352
G01 X31.8512 Y8.4242
G01 X31.8638 Y8.4128
G01 X31.9836 Y8.2930
G01 X32.1959 Y8.1512
G01 X32.4319 Y8.0534
G01 X32.6823 Y8.0036
G01 X32.9377 Y8.0036
G01 X33.1881 Y8.0534
G01 X33.4241 Y8.1512
G01 X33.6364 Y8.2930
G01 X33.8170 Y8.4736
G01 X33.9240 Y8.6338
G01 X33.9362 Y8.6497
G01 X33.9466 Y8.6611
G01 X33.9592 Y8.6726
G01 X33.9752 Y8.6846
G01 X33.9885 Y8.6926
G01 X34.0051 Y8.7008
G01 X34.0106 Y8.7031
G01 X34.0252 Y8.7083
G01 X34.0432 Y8.7127
G01 X34.0615 Y8.7155
G01 X34.0770 Y8.7163
G01 X34.0955 Y8.7157
G01 X34.1015 Y8.7151
G01 X34.1183 Y8.7124
G01 X34.1376 Y8.7073
G01 X34.1522 Y8.7020
G01 X34.1689 Y8.6941
G01 X34.1848 Y8.6846
G01 X34.2008 Y8.6726
G01 X34.2134 Y8.6611
G01 X34.2238 Y8.6497
G01 X34.2360 Y8.6338
G01 X34.3430 Y8.4736
G01 X34.5236 Y8.2930
G01 X34.7359 Y8.1512
G01 X34.9719 Y8.0534
G01 X35.2223 Y8.0036
G01 X35.4777 Y8.0036
G01 X35.7281 Y8.0534
G01 X35.9641 Y8.1512
G01 X36.1764 Y8.2930
G01 X36.3570 Y8.4736
G01 X36.3738 Y8.4988
G01 X36.3840 Y8.5124
G01 X36.3964 Y8.5261
G01 X36.4113 Y8.5395
G01 X36.4250 Y8.5496
G01 X36.4383 Y8.5576
G01 X36.4576 Y8.5670
G01 X36.4780 Y8.5741
G01 X36.4930 Y8.5778
G01 X36.5113 Y8.5805
G01 X36.5298 Y8.5814
G01 X36.5483 Y8.5805
G01 X36.5666 Y8.5778
G01 X36.5845 Y8.5733
G01 X36.6020 Y8.5670
G01 X36.6187 Y8.5591
G01 X36.6346 Y8.5496
G01 X36.6495 Y8.5386
G01 X36.6653 Y8.5239
G01 X36.6756 Y8.5124
G01 X36.6849 Y8.5000
G01 X36.7665 Y8.3780
G01 X36.9680 Y8.1765
G01 X37.2049 Y8.0182
G01 X37.4681 Y7.9092
G01 X37.7475 Y7.8536
G01 X38.0325 Y7.8536
G01 X38.3119 Y7.9092
G01 X38.5751 Y8.0182
G01 X38.8120 Y8.1765
G01 X39.0266 Y8.3911
G00 Z2.0000
G00 X40.4330 Y8.2385
G01 F60.00
G01 Z-0.0200
G01 F120.00
G01 X40.5341 Y8.2436
G01 X40.6371 Y8.2588
G01 X40.7382 Y8.2842
G01 X40.8362 Y8.3193
G01 X40.9304 Y8.3638
G01 X41.0198 Y8.4174
G01 X41.1034 Y8.4794
G01 X41.1806 Y8.5494
G01 X41.2506 Y8.6266
G01 X41.3126 Y8.7102
G01 X41.3662 Y8.7996
G01 X41.4107 Y8.8938
G01 X41.4458 Y8.9918
G01 X41.4712 Y9.0929
G01 X41.4864 Y9.1959
G01 X41.4915 Y9.3000
G01 X41.4864 Y9.4041
G01 X41.4712 Y9.5071
G01 X41.4458 Y9.6082
G01 X41.4107 Y9.7062
G01 X41.3662 Y9.8004
G01 X41.3126 Y9.8898
G01 X41.2506 Y9.9734
G01 X41.1806 Y10.0506
G01 X41.1034 Y10.1206
G01 X41.0198 Y10.1826
G01 X40.9304 Y10.2362
G01 X40.8362 Y10.2807
G01 X40.7382 Y10.3158
G01 X40.6371 Y10.3412
G01 X40.5341 Y10.3564
G01 X40.4300 Y10.3615
G01 X40.3259 Y10.3564
G01 X40.2229 Y10.3412
G01 X40.1218 Y10.3158
G01 X40.0238 Y10.2807
G01 X39.9296 Y10.2362
G01 X39.8402 Y10.1826
G01 X39.7566 Y10.1206
G01 X39.6794 Y10.0506
G01 X39.6094 Y9.9734
G01 X39.5474 Y9.8898
G01 X39.4938 Y9.8004
G01 X39.4493 Y9.7062
G01 X39.4142 Y9.6082
G01 X39.3888 Y9.5071
G01 X39.3736 Y9.4041
G01 X39.3685 Y9.3000
G01 X39.3736 Y9.1959
G01 X39.3888 Y9.0929
G01 X39.4142 Y8.9918
G01 X39.4493 Y8.8938
G01 X39.4938 Y8.7996
G01 X39.5474 Y8.7102
G01 X39.6094 Y8.6266
G01 X39.6794 Y8.5494
G01 X39.7566 Y8.4794
G01 X39.8402 Y8.4174
G01 X39.9296 Y8.3638
G01 X40.0238 Y8.3193
G01 X40.1218 Y8.2842
G01 X40.2229 Y8.2588
G01 X40.3259 Y8.2436
G01 X40.4270 Y8.2385
G01 X40.4330 Y8.2385
G00 Z2.0000
G00 X42.9730 Y8.2385
G01 F60.00
G01 Z-0.0200
G01 F120.00
G01 X43.0741 Y8.2436
G01 X43.1771 Y8.2588
G01 X43.2782 Y8.2842
G01 X43.3762 Y8.3193
G01 X43.4704 Y8.3638
G01 X43.5598 Y8.4174
G01 X43.6434 Y8.4794
G01 X43.7206 Y8.5494
G01 X43.7906 Y8.6266
G01 X43.8526 Y8.7102
G01 X43.9062 Y8.7996
G01 X43.9507 Y8.8938
G01 X43.9858 Y8.9918
G01 X44.0112 Y9.0929
G01 X44.0264 Y9.1959
G01 X44.0315 Y9.3000
G01 X44.0264 Y9.4041
G01 X44.0112 Y9.5071
G01 X43.9858 Y9.6082
G01 X43.9507 Y9.7062
G01 X43.9062 Y9.8004
G01 X43.8526 Y9.8898
G01 X43.7906 Y9.9734
G01 X43.7206 Y10.0506
G01 X43.6434 Y10.1206
G01 X43.5598 Y10.1826
G01 X43.4704 Y10.2362
G01 X43.3762 Y10.2807
G01 X43.2782 Y10.3158
G01 X43.1771 Y10.3412
G01 X43.0741 Y10.3564
G01 X42.9700 Y10.3615
G01 X42.8659 Y10.3564
G01 X42.7629 Y10.3412
G01 X42.6618 Y10.3158
G01 X42.5638 Y10.2807
G01 X42.4696 Y10.2362
G01 X42.3802 Y10.1826
G01 X42.2966 Y10.1206
G01 X42.2194 Y10.0506
G01 X42.1494 Y9.9734
G01 X42.0874 Y9.8898
G01 X42.0338 Y9.8004
G01 X41.9893 Y9.7062
G01 X41.9542 Y9.6082
G01 X41.9288 Y9.5071
G01 X41.9136 Y9.4041
G01 X41.9085 Y9.3000
G01 X41.9136 Y9.1959
G01 X41.9288 Y9.0929
G01 X41.9542 Y8.9918
G01 X41.9893 Y8.8938
G01 X42.0338 Y8.7996
G01 X42.0874 Y8.7102
G01 X42.1494 Y8.6266
G01 X42.2194 Y8.5494
G01 X42.2966 Y8.4794
G01 X42.3802 Y8.4174
G01 X42.4696 Y8.3638
G01 X42.5638 Y8.3193
G01 X42.6618 Y8.2842
G01 X42.7629 Y8.2588
G01 X42.8659 Y8.2436
G01 X42.9670 Y8.2385
G01 X42.9730 Y8.2385
G00 Z2.0000
G00 X36.4084 Y5.4641
G01 F60.00
G01 Z-0.0200
G01 F120.00
G01 X36.4084 Y4.8099
G01 X36.4094 Y4.7907
G01 X36.4119 Y4.7731
G01 X36.4131 Y4.7672
G01 X36.4179 Y4.7486
G01 X36.4245 Y4.7304
G01 X36.4334 Y4.7117
G01 X36.4440 Y4.6939
G01 X36.4564 Y4.6772
G01 X36.4704 Y4.6618
G01 X36.4857 Y4.6478
G01 X36.5024 Y4.6355
G01 X36.5202 Y4.6248
G01 X36.5390 Y4.6159
G01 X36.5586 Y4.6089
G01 X36.5787 Y4.6039
G01 X36.5993 Y4.6008
G01 X36.6200 Y4.5998
G01 X36.6407 Y4.6008
G01 X36.6613 Y4.6039
G01 X36.6829 Y4.6094
G01 X36.7010 Y4.6159
G01 X36.7171 Y4.6234
G01 X36.7376 Y4.6355
G01 X36.7565 Y4.6498
G01 X36.7696 Y4.6618
G01 X36.7816 Y4.6749
G01 X36.7960 Y4.6939
G01 X36.8080 Y4.7144
G01 X36.8155 Y4.7304
G01 X36.8216 Y4.7471
G01 X36.8233 Y4.7529
G01 X36.8278 Y4.7716
G01 X36.8306 Y4.7907
G01 X36.8316 Y4.8114
G01 X36.8316 Y5.4641
G01 X37.2985 Y6.1978
G01 X37.3101 Y6.2186
G01 X37.3173 Y6.2348
G01 X37.3234 Y6.2531
G01 X37.3278 Y6.2718
G01 X37.3289 Y6.2778
G01 X37.3310 Y6.2954
G01 X37.3316 Y6.3162
G01 X37.3297 Y6.3399
G01 X37.3266 Y6.3573
G01 X37.3211 Y6.3774
G01 X37.3124 Y6.3995
G01 X37.3044 Y6.4153
G01 X37.2933 Y6.4329
G01 X37.2785 Y6.4515
G01 X37.2663 Y6.4644
G01 X37.2517 Y6.4770
G01 X37.2336 Y6.4900
G01 X37.2182 Y6.4988
G01 X37.2128 Y6.5015
G01 X37.1938 Y6.5097
G01 X37.1769 Y6.5153
G01 X37.1566 Y6.5199
G01 X37.1360 Y6.5224
G01 X37.1153 Y6.5230
G01 X37.0946 Y6.5215
G01 X37.0741 Y6.5180
G01 X37.0541 Y6.5125
G01 X37.0375 Y6.5062
G01 X37.0188 Y6.4972
G01 X37.0135 Y6.4942
G01 X36.9985 Y6.4847
G01 X36.9810 Y6.4710
G01 X36.9650 Y6.4555
G01 X36.9535 Y6.4420
G01 X36.9423 Y6.4263
G01 X36.6200 Y5.9199
G01 X36.2977 Y6.4263
G01 X36.2865 Y6.4420
G01 X36.2750 Y6.4555
G01 X36.2708 Y6.4598
G01 X36.2567 Y6.4730
G01 X36.2415 Y6.4847
G01 X36.2239 Y6.4958
G01 X36.2053 Y6.5051
G01 X36.1859 Y6.5125
G01 X36.1659 Y6.5180
G01 X36.1454 Y6.5215
G01 X36.1247 Y6.5230
G01 X36.1040 Y6.5224
G01 X36.0834 Y6.5199
G01 X36.0631 Y6.5153
G01 X36.0434 Y6.5087
G01 X36.0244 Y6.5002
G01 X36.0064 Y6.4900
G01 X35.9894 Y6.4780
G01 X35.9737 Y6.4644
G01 X35.9585 Y6.4481
G01 X35.9467 Y6.4329
G01 X35.9372 Y6.4179
G01 X35.9263 Y6.3968
G01 X35.9180 Y6.3745
G01 X35.9134 Y6.3573
G01 X35.9099 Y6.3369
G01 X35.9084 Y6.3131
G01 X35.9090 Y6.2954
G01 X35.9116 Y6.2748
G01 X35.9171 Y6.2516
G01 X35.9227 Y6.2348
G01 X35.9299 Y6.2186
G01 X35.9415 Y6.1978
G01 X36.4084 Y5.4641
G00 Z2.0000
G00 X50.2250 Y8.2385
G01 F60.00
G01 Z-0.0200
G01 F120.00
G01 X52.2250 Y8.2385
G01 X52.2310 Y8.2387
G01 X52.2370 Y8.2396
G01 X52.2429 Y8.2411
G01 X52.2486 Y8.2431
G01 X52.2540 Y8.2457
G01 X52.2604 Y8.2497
G01 X52.2652 Y8.2534
G01 X52.2696 Y8.2576
G01 X52.2735 Y8.2621
G01 X52.2770 Y8.2671
G01 X52.2800 Y8.2723
G01 X52.2824 Y8.2778
G01 X52.2854 Y8.2880
G01 X52.2863 Y8.2940
G01 X52.2865 Y8.3000
G01 X52.2865 Y10.3000
G01 X52.2863 Y10.3060
G01 X52.2854 Y10.3120
G01 X52.2839 Y10.3179
G01 X52.2819 Y10.3236
G01 X52.2786 Y10.3303
G01 X52.2753 Y10.3354
G01 X52.2716 Y10.3402
G01 X52.2674 Y10.3446
G01 X52.2629 Y10.3485
G01 X52.2579 Y10.3520
G01 X52.2527 Y10.3550
G01 X52.2472 Y10.3574
G01 X52.2414 Y10.3593
G01 X52.2355 Y10.3606
G01 X52.2250 Y10.3615
G01 X50.2250 Y10.3615
G01 X50.2190 Y10.3613
G01 X50.2115 Y10.3601
G01 X50.2057 Y10.3584
G01 X50.2001 Y10.3563
G01 X50.1947 Y10.3536
G01 X50.1896 Y10.3503
G01 X50.1848 Y10.3466
G01 X50.1804 Y10.3424
G01 X50.1738 Y10.3342
G01 X50.1707 Y10.3290
G01 X50.1681 Y10.3236
G01 X50.1661 Y10.3179
G01 X50.1646 Y10.3120
G01 X50.1637 Y10.3060
G01 X50.1635 Y10.3000
G01 X50.1635 Y8.2985
G01 X50.1639 Y8.2925
G01 X50.1649 Y8.2865
G01 X50.1681 Y8.2764
G01 X50.1707 Y8.2710
G01 X50.1738 Y8.2658
G01 X50.1774 Y8.2610
G01 X50.1815 Y8.2565
G01 X50.1860 Y8.2524
G01 X50.1908 Y8.2488
G01 X50.1960 Y8.2457
G01 X50.2014 Y8.2431
G01 X50.2071 Y8.2411
G01 X50.2130 Y8.2396
G01 X50.2190 Y8.2387
G01 X50.2250 Y8.2385
G00 Z2.0000
G00 X52.8199 Y10.4240
G01 F60.00
G01 Z-0.0200
G01 F120.00
G01 X52.7987 Y10.4207
G01 X52.7802 Y10.4198
G01 X52.7617 Y10.4207
G01 X52.7434 Y10.4234
G01 X52.7254 Y10.4279
G01 X52.7080 Y10.4341
G01 X52.6913 Y10.4420
G01 X52.6742 Y10.4524
G01 X52.6605 Y10.4626
G01 X52.6490 Y10.4729
G01 X52.6344 Y10.4887
G01 X52.6217 Y10.5061
G01 X52.6146 Y10.5181
G01 X52.5980 Y10.5492
G01 X52.5422 Y10.6172
G01 X52.4742 Y10.6730
G01 X52.3967 Y10.7144
G01 X52.3125 Y10.7399
G01 X52.2157 Y10.7495
G01 X50.2343 Y10.7495
G01 X50.1375 Y10.7399
G01 X50.0533 Y10.7144
G01 X49.9758 Y10.6730
G01 X49.9078 Y10.6172
G01 X49.8520 Y10.5492
G01 X49.8106 Y10.4717
G01 X49.7851 Y10.3875
G01 X49.7755 Y10.2907
G01 X49.7755 Y8.3093
G01 X49.7851 Y8.2125
G01 X49.8106 Y8.1283
G01 X49.8520 Y8.0508
G01 X49.9078 Y7.9828
G01 X49.9758 Y7.9270
G01 X50.0533 Y7.8856
G01 X50.1375 Y7.8601
G01 X50.2343 Y7.8505
G01 X52.2157 Y7.8505
G01 X52.3125 Y7.8601
G01 X52.3967 Y7.8856
G01 X52.4742 Y7.9270
G01 X52.5422 Y7.9828
G01 X52.5980 Y8.0508
G01 X52.6153 Y8.0832
G01 X52.6234 Y8.0964
G01 X52.6334 Y8.1101
G01 X52.6468 Y8.1250
G01 X52.6605 Y8.1374
G01 X52.6754 Y8.1485
G01 X52.6913 Y8.1580
G01 X52.7080 Y8.1659
G01 X52.7226 Y8.1712
G01 X52.7419 Y8.1763
G01 X52.7587 Y8.1790
G01 X52.7647 Y8.1796
G01 X52.7832 Y8.1802
G01 X52.8002 Y8.1792
G01 X52.8199 Y8.1760
G01 X52.8349 Y8.1721
G01 X52.8496 Y8.1670
G01 X52.8664 Y8.1593
G01 X52.8850 Y8.1485
G01 X53.0799 Y8.0182
G01 X53.3431 Y7.9092
G01 X53.6225 Y7.8536
G01 X53.9075 Y7.8536
G01 X54.1869 Y7.9092
G01 X54.4501 Y8.0182
G01 X54.6870 Y8.1765
G01 X54.9026 Y8.3921
G01 X54.9191 Y8.4065
G01 X54.9316 Y8.4155
G01 X54.9474 Y8.4248
G01 X54.9641 Y8.4325
G01 X54.9786 Y8.4377
G01 X54.9964 Y8.4423
G01 X55.0023 Y8.4435
G01 X55.0175 Y8.4456
G01 X55.0374 Y8.4464
G01 X55.0543 Y8.4454
G01 X55.0695 Y8.4431
G01 X55.0754 Y8.4420
G01 X55.0917 Y8.4376
G01 X55.1076 Y8.4318
G01 X55.1229 Y8.4246
G01 X55.1374 Y8.4161
G01 X55.1424 Y8.4127
G01 X55.1547 Y8.4035
G01 X55.1684 Y8.3911
G01 X55.3830 Y8.1765
G01 X55.6199 Y8.0182
G01 X55.8831 Y7.9092
G01 X56.1625 Y7.8536
G01 X56.4475 Y7.8536
G01 X56.7269 Y7.9092
G01 X56.9901 Y8.0182
G01 X57.2270 Y8.1765
G01 X57.4426 Y8.3921
G01 X57.4591 Y8.4065
G01 X57.4716 Y8.4155
G01 X57.4874 Y8.4248
G01 X57.5041 Y8.4325
G01 X57.5186 Y8.4377
G01 X57.5364 Y8.4423
G01 X57.5423 Y8.4435
G01 X57.5575 Y8.4456
G01 X57.5774 Y8.4464
G01 X57.5943 Y8.4454
G01 X57.6095 Y8.4431
G01 X57.6154 Y8.4420
G01 X57.6317 Y8.4376
G01 X57.6476 Y8.4318
G01 X57.6629 Y8.4246
G01 X57.6774 Y8.4161
G01 X57.6824 Y8.4127
G01 X57.6947 Y8.4035
G01 X57.7084 Y8.3911
G01 X57.9230 Y8.1765
G01 X58.1599 Y8.0182
G01 X58.4231 Y7.9092
G01 X58.7025 Y7.8536
G01 X58.9875 Y7.8536
G01 X59.2669 Y7.9092
G01 X59.5301 Y8.0182
G01 X59.7670 Y8.1765
G01 X59.9826 Y8.3921
G01 X59.9991 Y8.4065
G01 X60.0116 Y8.4155
G01 X60.0274 Y8.4248
G01 X60.0441 Y8.4325
G01 X60.0586 Y8.4377
G01 X60.0764 Y8.4423
G01 X60.0823 Y8.4435
G01 X60.0975 Y8.4456
G01 X60.1159 Y8.4464
G01 X60.1343 Y8.4454
G01 X60.1495 Y8.4431
G01 X60.1703 Y8.4381
G01 X60.1876 Y8.4318
G01 X60.2015 Y8.4253
G01 X60.2068 Y8.4225
G01 X60.2224 Y8.4127
G01 X60.2347 Y8.4035
G01 X60.2484 Y8.3911
G01 X60.4630 Y8.1765
G01 X60.6999 Y8.0182
G01 X60.9631 Y7.9092
G01 X61.2425 Y7.8536
G01 X61.5275 Y7.8536
G01 X61.8069 Y7.9092
G01 X62.0701 Y8.0182
G01 X62.3070 Y8.1765
G01 X62.5226 Y8.3921
G01 X62.5391 Y8.4065
G01 X62.5516 Y8.4155
G01 X62.5674 Y8.4248
G01 X62.5841 Y8.4325
G01 X62.5986 Y8.4377
G01 X62.6164 Y8.4423
G01 X62.6223 Y8.4435
G01 X62.6375 Y8.4456
G01 X62.6559 Y8.4464
G01 X62.6743 Y8.4454
G01 X62.6895 Y8.4431
G01 X62.7103 Y8.4381
G01 X62.7276 Y8.4318
G01 X62.7415 Y8.4253
G01 X62.7468 Y8.4225
G01 X62.7624 Y8.4127
G01 X62.7747 Y8.4035
G01 X62.7884 Y8.3911
G01 X63.0030 Y8.1765
G01 X63.2399 Y8.0182
G01 X63.5031 Y7.9092
G01 X63.7825 Y7.8536
G01 X64.0675 Y7.8536
G01 X64.3469 Y7.9092
G01 X64.6101 Y8.0182
G01 X64.8470 Y8.1765
G01 X65.0485 Y8.3780
G01 X65.2068 Y8.6149
G01 X65.3158 Y8.8781
G01 X65.3714 Y9.1575
G01 X65.3714 Y9.4425
G01 X65.3158 Y9.7219
G01 X65.2068 Y9.9851
G01 X65.0485 Y10.2220
G01 X64.8470 Y10.4235
G01 X64.6101 Y10.5818
G01 X64.3469 Y10.6908
G01 X64.0675 Y10.7464
G01 X63.7825 Y10.7464
G01 X63.5031 Y10.6908
G01 X63.2399 Y10.5818
G01 X63.0030 Y10.4235
G01 X62.7874 Y10.2079
G01 X62.7709 Y10.1935
G01 X62.7584 Y10.1845
G01 X62.7426 Y10.1752
G01 X62.7259 Y10.1675
G01 X62.7114 Y10.1623
G01 X62.7056 Y10.1606
G01 X62.6892 Y10.1568
G01 X62.6725 Y10.1544
G01 X62.6556 Y10.1536
G01 X62.6387 Y10.1544
G01 X62.6327 Y10.1550
G01 X62.6175 Y10.1574
G01 X62.5997 Y10.1619
G01 X62.5824 Y10.1682
G01 X62.5685 Y10.1747
G01 X62.5632 Y10.1775
G01 X62.5476 Y10.1873
G01 X62.5353 Y10.1965
G01 X62.5216 Y10.2089
G01 X62.3070 Y10.4235
G01 X62.0701 Y10.5818
G01 X61.8069 Y10.6908
G01 X61.5275 Y10.7464
G01 X61.2425 Y10.7464
G01 X60.9631 Y10.6908
G01 X60.6999 Y10.5818
G01 X60.4630 Y10.4235
G01 X60.2474 Y10.2079
G01 X60.2309 Y10.1935
G01 X60.2184 Y10.1845
G01 X60.2039 Y10.1759
G01 X60.1887 Y10.1686
G01 X60.1831 Y10.1664
G01 X60.1685 Y10.1614
G01 X60.1507 Y10.1570
G01 X60.1325 Y10.1544
G01 X60.1171 Y10.1537
G01 X60.0987 Y10.1544
G01 X60.0927 Y10.1550
G01 X60.0775 Y10.1574
G01 X60.0597 Y10.1619
G01 X60.0424 Y10.1682
G01 X60.0285 Y10.1747
G01 X60.0232 Y10.1775
G01 X60.0076 Y10.1873
G01 X59.9953 Y10.1965
G01 X59.9816 Y10.2089
G01 X59.7670 Y10.4235
G01 X59.5301 Y10.5818
G01 X59.2669 Y10.6908
G01 X58.9875 Y10.7464
G01 X58.7025 Y10.7464
G01 X58.4231 Y10.6908
G01 X58.1599 Y10.5818
G01 X57.9230 Y10.4235
G01 X57.7074 Y10.2079
G01 X57.6921 Y10.1944
G01 X57.6784 Y10.1845
G01 X57.6652 Y10.1766
G01 X57.6599 Y10.1739
G01 X57.6445 Y10.1669
G01 X57.6285 Y10.1614
G01 X57.6121 Y10.1573
G01 X57.5954 Y10.1548
G01 X57.5895 Y10.1542
G01 X57.5741 Y10.1536
G01 X57.5557 Y10.1546
G01 X57.5375 Y10.1574
G01 X57.5226 Y10.1611
G01 X57.5052 Y10.1671
G01 X57.4997 Y10.1694
G01 X57.4858 Y10.1761
G01 X57.4688 Y10.1864
G01 X57.4553 Y10.1965
G01 X57.4416 Y10.2089
G01 X57.2270 Y10.4235
G01 X56.9901 Y10.5818
G01 X56.7269 Y10.6908
G01 X56.4475 Y10.7464
G01 X56.1625 Y10.7464
G01 X55.8831 Y10.6908
G01 X55.6199 Y10.5818
G01 X55.3830 Y10.4235
G01 X55.1674 Y10.2079
G01 X55.1521 Y10.1944
G01 X55.1384 Y10.1845
G01 X55.1252 Y10.1766
G01 X55.1059 Y10.1675
G01 X55.0885 Y10.1614
G01 X55.0736 Y10.1577
G01 X55.0525 Y10.1544
G01 X55.0341 Y10.1536
G01 X55.0157 Y10.1546
G01 X54.9975 Y10.1574
G01 X54.9826 Y10.1611
G01 X54.9652 Y10.1671
G01 X54.9597 Y10.1694
G01 X54.9458 Y10.1761
G01 X54.9288 Y10.1864
G01 X54.9153 Y10.1965
G01 X54.9016 Y10.2089
G01 X54.6870 Y10.4235
G01 X54.4501 Y10.5818
G01 X54.1869 Y10.6908
G01 X53.9075 Y10.7464
G01 X53.6225 Y10.7464
G01 X53.3431 Y10.6908
G01 X53.0799 Y10.5818
G01 X52.8824 Y10.4499
G01 X52.8691 Y10.4420
G01 X52.8524 Y10.4341
G01 X52.8349 Y10.4279
G01 X52.8199 Y10.4240
G00 Z2.0000
G00 X53.7680 Y8.2385
G01 F60.00
G01 Z-0.0200
G01 F120.00
G01 X53.8691 Y8.2436
G01 X53.9721 Y8.2588
G01 X54.0732 Y8.2842
G01 X54.1712 Y8.3193
G01 X54.2654 Y8.3638
G01 X54.3548 Y8.4174
G01 X54.4384 Y8.4794
G01 X54.5156 Y8.5494
G01 X54.5856 Y8.6266
G01 X54.6476 Y8.7102
G01 X54.7012 Y8.7996
G01 X54.7457 Y8.8938
G01 X54.7808 Y8.9918
G01 X54.8062 Y9.0929
G01 X54.8214 Y9.1959
G01 X54.8265 Y9.3000
G01 X54.8214 Y9.4041
G01 X54.8062 Y9.5071
G01 X54.7808 Y9.6082
G01 X54.7457 Y9.7062
G01 X54.7012 Y9.8004
G01 X54.6476 Y9.8898
G01 X54.5856 Y9.9734
G01 X54.5156 Y10.0506
G01 X54.4384 Y10.1206
G01 X54.3548 Y10.1826
G01 X54.2654 Y10.2362
G01 X54.1712 Y10.2807
G01 X54.0732 Y10.3158
G01 X53.9721 Y10.3412
G01 X53.8691 Y10.3564
G01 X53.7650 Y10.3615
G01 X53.6609 Y10.3564
G01 X53.5579 Y10.3412
G01 X53.4568 Y10.3158
G01 X53.3588 Y10.2807
G01 X53.2646 Y10.2362
G01 X53.1752 Y10.1826
G01 X53.0916 Y10.1206
G01 X53.0144 Y10.0506
G01 X52.9444 Y9.9734
G01 X52.8824 Y9.8898
G01 X52.8288 Y9.8004
G01 X52.7843 Y9.7062
G01 X52.7492 Y9.6082
G01 X52.7238 Y9.5071
G01 X52.7086 Y9.4041
G01 X52.7035 Y9.3000
G01 X52.7086 Y9.1959
G01 X52.7238 Y9.0929
G01 X52.7492 Y8.9918
G01 X52.7843 Y8.8938
G01 X52.8288 Y8.7996
G01 X52.8824 Y8.7102
G01 X52.9444 Y8.6266
G01 X53.0144 Y8.5494
G01 X53.0916 Y8.4794
G01 X53.1752 Y8.4174
G01 X53.2646 Y8.3638
G01 X53.3588 Y8.3193
G01 X53.4568 Y8.2842
G01 X53.5579 Y8.2588
G01 X53.6609 Y8.2436
G01 X53.7620 Y8.2385
G01 X53.7680 Y8.2385
G00 Z2.0000
G00 X56.3080 Y8.2385
G01 F60.00
G01 Z-0.0200
G01 F120.00
G01 X56.4091 Y8.2436
G01 X56.5121 Y8.2588
G01 X56.6132 Y8.2842
G01 X56.7112 Y8.3193
G01 X56.8054 Y8.3638
G01 X56.8948 Y8.4174
G01 X56.9784 Y8.4794
G01 X57.0556 Y8.5494
G01 X57.1256 Y8.6266
G01 X57.1876 Y8.7102
G01 X57.2412 Y8.7996
G01 X57.2857 Y8.8938
G01 X57.3208 Y8.9918
G01 X57.3462 Y9.0929
G01 X57.3614 Y9.1959
G01 X57.3665 Y9.3000
G01 X57.3614 Y9.4041
G01 X57.3462 Y9.5071
G01 X57.3208 Y9.6082
G01 X57.2857 Y9.7062
G01 X57.2412 Y9.8004
G01 X57.1876 Y9.8898
G01 X57.1256 Y9.9734
G01 X57.0556 Y10.0506
G01 X56.9784 Y10.1206
G01 X56.8948 Y10.1826
G01 X56.8054 Y10.2362
G01 X56.7112 Y10.2807
G01 X56.6132 Y10.3158
G01 X56.5121 Y10.3412
G01 X56.4091 Y10.3564
G01 X56.3050 Y10.3615
G01 X56.2009 Y10.3564
G01 X56.0979 Y10.3412
G01 X55.9968 Y10.3158
G01 X55.8988 Y10.2807
G01 X55.8046 Y10.2362
G01 X55.7152 Y10.1826
G01 X55.6316 Y10.1206
G01 X55.5544 Y10.0506
G01 X55.4844 Y9.9734
G01 X55.4224 Y9.8898
G01 X55.3688 Y9.8004
G01 X55.3243 Y9.7062
G01 X55.2892 Y9.6082
G01 X55.2638 Y9.5071
G01 X55.2486 Y9.4041
G01 X55.2435 Y9.3000
G01 X55.2486 Y9.1959
G01 X55.2638 Y9.0929
G01 X55.2892 Y8.9918
G01 X55.3243 Y8.8938
G01 X55.3688 Y8.7996
G01 X55.4224 Y8.7102
G01 X55.4844 Y8.6266
G01 X55.5544 Y8.5494
G01 X55.6316 Y8.4794
G01 X55.7152 Y8.4174
G01 X55.8046 Y8.3638
G01 X55.8988 Y8.3193
G01 X55.9968 Y8.2842
G01 X56.0979 Y8.2588
G01 X56.2009 Y8.2436
G01 X56.3020 Y8.2385
G01 X56.3080 Y8.2385
G00 Z2.0000
G00 X56.1700 Y6.5231
G01 F60.00
G01 Z-0.0200
G01 F120.00
G01 X55.1700 Y6.5231
G01 X55.1493 Y6.5220
G01 X55.1287 Y6.5190
G01 X55.1057 Y6.5130
G01 X55.0890 Y6.5069
G01 X55.0729 Y6.4994
G01 X55.0524 Y6.4874
G01 X55.0357 Y6.4750
G01 X55.0183 Y6.4589
G01 X55.0064 Y6.4457
G01 X54.9958 Y6.4315
G01 X54.9841 Y6.4125
G01 X54.9745 Y6.3924
G01 X54.9675 Y6.3729
G01 X54.9624 Y6.3527
G01 X54.9594 Y6.3322
G01 X54.9584 Y6.3114
G01 X54.9594 Y6.2907
G01 X54.9624 Y6.2701
G01 X54.9684 Y6.2471
G01 X54.9751 Y6.2291
G01 X54.9849 Y6.2090
G01 X54.9958 Y6.1914
G01 X55.0064 Y6.1772
G01 X55.0183 Y6.1640
G01 X55.0357 Y6.1478
G01 X55.0524 Y6.1355
G01 X55.0702 Y6.1248
G01 X55.0904 Y6.1154
G01 X55.1086 Y6.1089
G01 X55.1287 Y6.1039
G01 X55.1493 Y6.1008
G01 X55.1685 Y6.0998
G01 X55.7746 Y6.0998
G01 X54.9939 Y4.9288
G01 X54.9819 Y4.9083
G01 X54.9744 Y4.8922
G01 X54.9674 Y4.8727
G01 X54.9624 Y4.8525
G01 X54.9594 Y4.8320
G01 X54.9584 Y4.8113
G01 X54.9594 Y4.7905
G01 X54.9625 Y4.7700
G01 X54.9675 Y4.7499
G01 X54.9745 Y4.7303
G01 X54.9834 Y4.7116
G01 X54.9941 Y4.6938
G01 X55.0065 Y4.6771
G01 X55.0204 Y4.6617
G01 X55.0358 Y4.6478
G01 X55.0525 Y4.6354
G01 X55.0690 Y4.6255
G01 X55.0891 Y4.6159
G01 X55.1115 Y4.6081
G01 X55.1287 Y4.6039
G01 X55.1463 Y4.6012
G01 X55.1685 Y4.5998
G01 X56.1700 Y4.5998
G01 X56.1892 Y4.6007
G01 X56.2113 Y4.6039
G01 X56.2343 Y4.6099
G01 X56.2510 Y4.6159
G01 X56.2671 Y4.6234
G01 X56.2876 Y4.6355
G01 X56.3043 Y4.6478
G01 X56.3217 Y4.6640
G01 X56.3336 Y4.6772
G01 X56.3442 Y4.6914
G01 X56.3559 Y4.7103
G01 X56.3655 Y4.7304
G01 X56.3725 Y4.7500
G01 X56.3776 Y4.7701
G01 X56.3806 Y4.7907
G01 X56.3816 Y4.8114
G01 X56.3806 Y4.8322
G01 X56.3776 Y4.8527
G01 X56.3716 Y4.8757
G01 X56.3649 Y4.8938
G01 X56.3551 Y4.9138
G01 X56.3442 Y4.9315
G01 X56.3336 Y4.9457
G01 X56.3217 Y4.9589
G01 X56.3043 Y4.9750
G01 X56.2876 Y4.9874
G01 X56.2698 Y4.9981
G01 X56.2496 Y5.0075
G01 X56.2314 Y5.0139
G01 X56.2113 Y5.0190
G01 X56.1907 Y5.0220
G01 X56.1715 Y5.0230
G01 X55.5654 Y5.0231
G01 X56.3461 Y6.1940
G01 X56.3567 Y6.2119
G01 X56.3656 Y6.2306
G01 X56.3726 Y6.2502
G01 X56.3781 Y6.2733
G01 X56.3806 Y6.2909
G01 X56.3816 Y6.3086
G01 X56.3806 Y6.3323
G01 X56.3769 Y6.3558
G01 X56.3725 Y6.3730
G01 X56.3666 Y6.3897
G01 X56.3566 Y6.4113
G01 X56.3459 Y6.4291
G01 X56.3316 Y6.4480
G01 X56.3196 Y6.4611
G01 X56.3065 Y6.4731
G01 X56.2875 Y6.4874
G01 X56.2697 Y6.4981
G01 X56.2481 Y6.5080
G01 X56.2314 Y6.5140
G01 X56.2142 Y6.5183
G01 X56.1907 Y6.5220
G01 X56.1700 Y6.5231
G00 Z2.0000
G00 X58.8480 Y8.2385
G01 F60.00
G01 Z-0.0200
G01 F120.00
G01 X58.9491 Y8.2436
G01 X59.0521 Y8.2588
G01 X59.1532 Y8.2842
G01 X59.2512 Y8.3193
G01 X59.3454 Y8.3638
G01 X59.4348 Y8.4174
G01 X59.5184 Y8.4794
G01 X59.5956 Y8.5494
G01 X59.6656 Y8.6266
G01 X59.7276 Y8.7102
G01 X59.7812 Y8.7996
G01 X59.8257 Y8.8938
G01 X59.8608 Y8.9918
G01 X59.8862 Y9.0929
G01 X59.9014 Y9.1959
G01 X59.9065 Y9.3000
G01 X59.9014 Y9.4041
G01 X59.8862 Y9.5071
G01 X59.8608 Y9.6082
G01 X59.8257 Y9.7062
G01 X59.7812 Y9.8004
G01 X59.7276 Y9.8898
G01 X59.6656 Y9.9734
G01 X59.5956 Y10.0506
G01 X59.5184 Y10.1206
G01 X59.4348 Y10.1826
G01 X59.3454 Y10.2362
G01 X59.2512 Y10.2807
G01 X59.1532 Y10.3158
G01 X59.0521 Y10.3412
G01 X58.9491 Y10.3564
G01 X58.8450 Y10.3615
G01 X58.7409 Y10.3564
G01 X58.6379 Y10.3412
G01 X58.5368 Y10.3158
G01 X58.4388 Y10.2807
G01 X58.3446 Y10.2362
G01 X58.2552 Y10.1826
G01 X58.1716 Y10.1206
G01 X58.0944 Y10.0506
G01 X58.0244 Y9.9734
G01 X57.9624 Y9.8898
G01 X57.9088 Y9.8004
G01 X57.8643 Y9.7062
G01 X57.8292 Y9.6082
G01 X57.8038 Y9.5071
G01 X57.7886 Y9.4041
G01 X57.7835 Y9.3000
G01 X57.7886 Y9.1959
G01 X57.8038 Y9.0929
G01 X57.8292 Y8.9918
G01 X57.8643 Y8.8938
G01 X57.9088 Y8.7996
G01 X57.9624 Y8.7102
G01 X58.0244 Y8.6266
G01 X58.0944 Y8.5494
G01 X58.1716 Y8.4794
G01 X58.2552 Y8.4174
G01 X58.3446 Y8.3638
G01 X58.4388 Y8.3193
G01 X58.5368 Y8.2842
G01 X58.6379 Y8.2588
G01 X58.7409 Y8.2436
G01 X58.8420 Y8.2385
G01 X58.8480 Y8.2385
G00 Z2.0000
G00 X61.3880 Y8.2385
G01 F60.00
G01 Z-0.0200
G01 F120.00
G01 X61.4891 Y8.2436
G01 X61.5921 Y8.2588
G01 X61.6932 Y8.2842
G01 X61.7912 Y8.3193
G01 X61.8854 Y8.3638
G01 X61.9748 Y8.4174
G01 X62.0584 Y8.4794
G01 X62.1356 Y8.5494
G01 X62.2056 Y8.6266
G01 X62.2676 Y8.7102
G01 X62.3212 Y8.7996
G01 X62.3657 Y8.8938
G01 X62.4008 Y8.9918
G01 X62.4262 Y9.0929
G01 X62.4414 Y9.1959
G01 X62.4465 Y9.3000
G01 X62.4414 Y9.4041
G01 X62.4262 Y9.5071
G01 X62.4008 Y9.6082
G01 X62.3657 Y9.7062
G01 X62.3212 Y9.8004
G01 X62.2676 Y9.8898
G01 X62.2056 Y9.9734
G01 X62.1356 Y10.0506
G01 X62.0584 Y10.1206
G01 X61.9748 Y10.1826
G01 X61.8854 Y10.2362
G01 X61.7912 Y10.2807
G01 X61.6932 Y10.3158
G01 X61.5921 Y10.3412
G01 X61.4891 Y10.3564
G01 X61.3850 Y10.3615
G01 X61.2809 Y10.3564
G01 X61.1779 Y10.3412
G01 X61.0768 Y10.3158
G01 X60.9788 Y10.2807
G01 X60.8846 Y10.2362
G01 X60.7952 Y10.1826
G01 X60.7116 Y10.1206
G01 X60.6344 Y10.0506
G01 X60.5644 Y9.9734
G01 X60.5024 Y9.8898
G01 X60.4488 Y9.8004
G01 X60.4043 Y9.7062
G01 X60.3692 Y9.6082
G01 X60.3438 Y9.5071
G01 X60.3286 Y9.4041
G01 X60.3235 Y9.3000
G01 X60.3286 Y9.1959
G01 X60.3438 Y9.0929
G01 X60.3692 Y8.9918
G01 X60.4043 Y8.8938
G01 X60.4488 Y8.7996
G01 X60.5024 Y8.7102
G01 X60.5644 Y8.6266
G01 X60.6344 Y8.5494
G01 X60.7116 Y8.4794
G01 X60.7952 Y8.4174
G01 X60.8846 Y8.3638
G01 X60.9788 Y8.3193
G01 X61.0768 Y8.2842
G01 X61.1779 Y8.2588
G01 X61.2809 Y8.2436
G01 X61.3820 Y8.2385
G01 X61.3880 Y8.2385
G00 Z2.0000
G00 X63.9280 Y8.2385
G01 F60.00
G01 Z-0.0200
G01 F120.00
G01 X64.0291 Y8.2436
G01 X64.1321 Y8.2588
G01 X64.2332 Y8.2842
G01 X64.3312 Y8.3193
G01 X64.4254 Y8.3638
G01 X64.5148 Y8.4174
G01 X64.5984 Y8.4794
G01 X64.6756 Y8.5494
G01 X64.7456 Y8.6266
G01 X64.8076 Y8.7102
G01 X64.8612 Y8.7996
G01 X64.9057 Y8.8938
G01 X64.9408 Y8.9918
G01 X64.9662 Y9.0929
G01 X64.9814 Y9.1959
G01 X64.9865 Y9.3000
G01 X64.9814 Y9.4041
G01 X64.9662 Y9.5071
G01 X64.9408 Y9.6082
G01 X64.9057 Y9.7062
G01 X64.8612 Y9.8004
G01 X64.8076 Y9.8898
G01 X64.7456 Y9.9734
G01 X64.6756 Y10.0506
G01 X64.5984 Y10.1206
G01 X64.5148 Y10.1826
G01 X64.4254 Y10.2362
G01 X64.3312 Y10.2807
G01 X64.2332 Y10.3158
G01 X64.1321 Y10.3412
G01 X64.0291 Y10.3564
G01 X63.9250 Y10.3615
G01 X63.8209 Y10.3564
G01 X63.7179 Y10.3412
G01 X63.6168 Y10.3158
G01 X63.5188 Y10.2807
G01 X63.4246 Y10.2362
G01 X63.3352 Y10.1826
G01 X63.2516 Y10.1206
G01 X63.1744 Y10.0506
G01 X63.1044 Y9.9734
G01 X63.0424 Y9.8898
G01 X62.9888 Y9.8004
G01 X62.9443 Y9.7062
G01 X62.9092 Y9.6082
G01 X62.8838 Y9.5071
G01 X62.8686 Y9.4041
G01 X62.8635 Y9.3000
G01 X62.8686 Y9.1959
G01 X62.8838 Y9.0929
G01 X62.9092 Y8.9918
G01 X62.9443 Y8.8938
G01 X62.9888 Y8.7996
G01 X63.0424 Y8.7102
G01 X63.1044 Y8.6266
G01 X63.1744 Y8.5494
G01 X63.2516 Y8.4794
G01 X63.3352 Y8.4174
G01 X63.4246 Y8.3638
G01 X63.5188 Y8.3193
G01 X63.6168 Y8.2842
G01 X63.7179 Y8.2588
G01 X63.8209 Y8.2436
G01 X63.9220 Y8.2385
G01 X63.9280 Y8.2385
G00 Z2.0000
G00 X73.7068 Y8.9844
G01 F60.00
G01 Z-0.0200
G01 F120.00
G01 X73.3689 Y8.9844
G01 X73.3314 Y8.9049
G01 X73.3627 Y8.8019
G01 X73.4881 Y8.5438
G01 X73.6593 Y8.3180
G01 X73.8713 Y8.1299
G01 X74.1159 Y7.9868
G01 X74.3288 Y7.9132
G01 X74.4044 Y7.9486
G01 X74.4044 Y8.2868
G01 X74.3138 Y8.3193
G01 X74.2223 Y8.3624
G01 X74.2170 Y8.3653
G01 X74.1328 Y8.4157
G01 X74.1278 Y8.4191
G01 X74.0466 Y8.4794
G01 X73.9694 Y8.5494
G01 X73.8994 Y8.6266
G01 X73.8391 Y8.7078
G01 X73.8357 Y8.7128
G01 X73.7853 Y8.7970
G01 X73.7824 Y8.8023
G01 X73.7393 Y8.8938
G01 X73.7068 Y8.9844
G00 Z2.0000
G00 X73.7068 Y9.6156
G01 F60.00
G01 Z-0.0200
G01 F120.00
G01 X73.7393 Y9.7062
G01 X73.7838 Y9.8004
G01 X73.8374 Y9.8898
G01 X73.8976 Y9.9711
G01 X73.9014 Y9.9757
G01 X73.9673 Y10.0484
G01 X73.9716 Y10.0527
G01 X74.0466 Y10.1206
G01 X74.1278 Y10.1809
G01 X74.1328 Y10.1843
G01 X74.2170 Y10.2347
G01 X74.2223 Y10.2376
G01 X74.3138 Y10.2807
G01 X74.4118 Y10.3158
G01 X74.5129 Y10.3412
G01 X74.6130 Y10.3561
G01 X74.6190 Y10.3567
G01 X74.7200 Y10.3615
G01 X74.8210 Y10.3567
G01 X74.8270 Y10.3561
G01 X74.9271 Y10.3412
G01 X75.0282 Y10.3158
G01 X75.1262 Y10.2807
G01 X75.2177 Y10.2376
G01 X75.2230 Y10.2347
G01 X75.3072 Y10.1843
G01 X75.3122 Y10.1809
G01 X75.3934 Y10.1206
G01 X75.4684 Y10.0527
G01 X75.4727 Y10.0484
G01 X75.5386 Y9.9757
G01 X75.5424 Y9.9711
G01 X75.6026 Y9.8898
G01 X75.6562 Y9.8004
G01 X75.7007 Y9.7062
G01 X75.7332 Y9.6156
G01 X76.0711 Y9.6156
G01 X76.1086 Y9.6951
G01 X76.0773 Y9.7981
G01 X75.9519 Y10.0562
G01 X75.8679 Y10.1671
G01 X75.8585 Y10.1808
G01 X75.8504 Y10.1953
G01 X75.8426 Y10.2133
G01 X75.8370 Y10.2305
G01 X75.8331 Y10.2482
G01 X75.8308 Y10.2691
G01 X75.8305 Y10.2843
G01 X75.8318 Y10.3023
G01 X75.8348 Y10.3202
G01 X75.8395 Y10.3377
G01 X75.8459 Y10.3546
G01 X75.8539 Y10.3709
G01 X75.8633 Y10.3863
G01 X75.8743 Y10.4007
G01 X75.8865 Y10.4140
G01 X75.9023 Y10.4279
G01 X75.9146 Y10.4369
G01 X75.9276 Y10.4447
G01 X75.9692 Y10.4670
G01 X76.0372 Y10.5228
G01 X76.0930 Y10.5908
G01 X76.1344 Y10.6683
G01 X76.1599 Y10.7525
G01 X76.1695 Y10.8493
G01 X76.1695 Y12.8307
G01 X76.1599 Y12.9275
G01 X76.1344 Y13.0117
G01 X76.0930 Y13.0892
G01 X76.0372 Y13.1572
G01 X75.9692 Y13.2130
G01 X75.8917 Y13.2544
G01 X75.8075 Y13.2799
G01 X75.7107 Y13.2895
G01 X73.7293 Y13.2895
G01 X73.6325 Y13.2799
G01 X73.5483 Y13.2544
G01 X73.4708 Y13.2130
G01 X73.4028 Y13.1572
G01 X73.3470 Y13.0892
G01 X73.3056 Y13.0117
G01 X73.2801 Y12.9275
G01 X73.2705 Y12.8307
G01 X73.2705 Y10.8493
G01 X73.2801 Y10.7525
G01 X73.3056 Y10.6683
G01 X73.3470 Y10.5908
G01 X73.4028 Y10.5228
G01 X73.4708 Y10.4670
G01 X73.5124 Y10.4447
G01 X73.5254 Y10.4369
G01 X73.5377 Y10.4279
G01 X73.5535 Y10.4140
G01 X73.5657 Y10.4007
G01 X73.5767 Y10.3863
G01 X73.5861 Y10.3709
G01 X73.5941 Y10.3546
G01 X73.5995 Y10.3404
G01 X73.6013 Y10.3348
G01 X73.6058 Y10.3173
G01 X73.6082 Y10.3023
G01 X73.6095 Y10.2828
G01 X73.6089 Y10.2647
G01 X73.6063 Y10.2453
G01 X73.6030 Y10.2305
G01 X73.5984 Y10.2161
G01 X73.5909 Y10.1980
G01 X73.5815 Y10.1808
G01 X73.5721 Y10.1671
G01 X73.4881 Y10.0562
G01 X73.3627 Y9.7981
G01 X73.3314 Y9.6951
G01 X73.3689 Y9.6156
G01 X73.7068 Y9.6156
G00 Z2.0000
G00 X73.7200 Y10.7785
G01 F60.00
G01 Z-0.0200
G01 F120.00
G01 X75.7200 Y10.7785
G01 X75.7260 Y10.7787
G01 X75.7320 Y10.7796
G01 X75.7393 Y10.7816
G01 X75.7449 Y10.7837
G01 X75.7503 Y10.7864
G01 X75.7554 Y10.7897
G01 X75.7602 Y10.7934
G01 X75.7646 Y10.7976
G01 X75.7685 Y10.8021
G01 X75.7720 Y10.8071
G01 X75.7769 Y10.8164
G01 X75.7789 Y10.8221
G01 X75.7804 Y10.8280
G01 X75.7813 Y10.8340
G01 X75.7815 Y10.8400
G01 X75.7815 Y12.8400
G01 X75.7813 Y12.8460
G01 X75.7804 Y12.8520
G01 X75.7789 Y12.8579
G01 X75.7763 Y12.8649
G01 X75.7736 Y12.8703
G01 X75.7703 Y12.8754
G01 X75.7666 Y12.8802
G01 X75.7624 Y12.8846
G01 X75.7579 Y12.8885
G01 X75.7529 Y12.8920
G01 X75.7436 Y12.8969
G01 X75.7379 Y12.8989
G01 X75.7320 Y12.9004
G01 X75.7260 Y12.9013
G01 X75.7200 Y12.9015
G01 X73.7200 Y12.9015
G01 X73.7140 Y12.9013
G01 X73.7080 Y12.9004
G01 X73.7021 Y12.8989
G01 X73.6964 Y12.8969
G01 X73.6897 Y12.8936
G01 X73.6846 Y12.8903
G01 X73.6798 Y12.8866
G01 X73.6754 Y12.8824
G01 X73.6715 Y12.8779
G01 X73.6680 Y12.8729
G01 X73.6650 Y12.8677
G01 X73.6626 Y12.8622
G01 X73.6607 Y12.8564
G01 X73.6594 Y12.8505
G01 X73.6585 Y12.8400
G01 X73.6585 Y10.8385
G01 X73.6589 Y10.8325
G01 X73.6599 Y10.8265
G01 X73.6616 Y10.8207
G01 X73.6637 Y10.8151
G01 X73.6664 Y10.8097
G01 X73.6697 Y10.8046
G01 X73.6734 Y10.7998
G01 X73.6776 Y10.7954
G01 X73.6821 Y10.7915
G01 X73.6871 Y10.7880
G01 X73.6923 Y10.7850
G01 X73.6978 Y10.7826
G01 X73.7080 Y10.7796
G01 X73.7140 Y10.7787
G01 X73.7200 Y10.7785
G00 Z2.0000
G00 X75.0356 Y8.2868
G01 F60.00
G01 Z-0.0200
G01 F120.00
G01 X75.0356 Y7.9486
G01 X75.1112 Y7.9132
G01 X75.3241 Y7.9868
G01 X75.5687 Y8.1299
G01 X75.7807 Y8.3180
G01 X75.9519 Y8.5438
G01 X76.0773 Y8.8019
G01 X76.1086 Y8.9049
G01 X76.0711 Y8.9844
G01 X75.7332 Y8.9844
G01 X75.7007 Y8.8938
G01 X75.6576 Y8.8023
G01 X75.6547 Y8.7970
G01 X75.6043 Y8.7128
G01 X75.6009 Y8.7078
G01 X75.5406 Y8.6266
G01 X75.4706 Y8.5494
G01 X75.3934 Y8.4794
G01 X75.3122 Y8.4191
G01 X75.3072 Y8.4157
G01 X75.2230 Y8.3653
G01 X75.2177 Y8.3624
G01 X75.1262 Y8.3193
G01 X75.0356 Y8.2868
G00 Z2.0000
G00 X80.1353 Y8.5836
G01 F60.00
G01 Z-0.0200
G01 F120.00
G01 X80.1403 Y8.5697
G01 X80.1428 Y8.5641
G01 X80.1467 Y8.5571
G01 X80.1522 Y8.5499
G01 X80.1585 Y8.5435
G01 X80.1649 Y8.5386
G01 X80.1952 Y8.5188
G01 X80.2024 Y8.5150
G01 X80.2059 Y8.5016
G01 X80.2086 Y8.4943
G01 X80.2126 Y8.4866
G01 X80.2179 Y8.4792
G01 X80.2361 Y8.4578
G01 X80.2408 Y8.4530
G01 X80.2463 Y8.4484
G01 X80.2676 Y8.4329
G01 X80.2718 Y8.4302
G01 X80.2777 Y8.4271
G01 X80.2837 Y8.4247
G01 X80.2900 Y8.4228
G01 X80.2965 Y8.4216
G01 X80.3046 Y8.4210
G01 X80.3126 Y8.4213
G01 X80.3200 Y8.4226
G01 X80.3468 Y8.4107
G01 X80.3550 Y8.4078
G01 X80.3658 Y8.4056
G01 X80.3900 Y8.4035
G01 X80.4463 Y8.4012
G01 X80.5261 Y8.3991
G01 X80.7483 Y8.3951
G01 X80.8839 Y8.3933
G01 X81.0822 Y8.3914
G01 X81.7653 Y8.3860
G01 X81.7768 Y8.3872
G01 X81.7865 Y8.3899
G01 X81.7967 Y8.3944
G01 X81.8063 Y8.4010
G01 X81.8146 Y8.4090
G01 X81.8211 Y8.4180
G01 X81.8236 Y8.4224
G01 X81.8263 Y8.4284
G01 X81.8295 Y8.4395
G01 X81.8305 Y8.4460
G01 X81.8308 Y8.4526
G01 X81.8308 Y12.7408
G01 X81.8305 Y12.7471
G01 X81.8296 Y12.7534
G01 X81.8272 Y12.7624
G01 X81.8233 Y12.7714
G01 X81.6536 Y13.0982
G01 X81.6025 Y13.1956
G01 X81.5555 Y13.2832
G01 X81.5150 Y13.3565
G01 X81.4832 Y13.4117
G01 X81.4631 Y13.4434
G01 X81.4585 Y13.4495
G01 X81.4488 Y13.4600
G01 X81.4427 Y13.4649
G01 X81.4369 Y13.4686
G01 X81.4284 Y13.4727
G01 X81.3951 Y13.4855
G01 X81.3396 Y13.4976
G01 X81.2975 Y13.5036
G01 X81.1637 Y13.5307
G01 X81.0563 Y13.5778
G01 X80.9627 Y13.6495
G01 X80.9565 Y13.6556
G01 X80.8820 Y13.7519
G01 X80.8363 Y13.8534
G01 X80.8161 Y13.9591
G01 X80.8204 Y14.0652
G01 X80.8487 Y14.1676
G01 X80.9002 Y14.2623
G01 X80.9745 Y14.3454
G01 X81.0741 Y14.4148
G01 X81.0854 Y14.4207
G01 X81.1419 Y14.4464
G01 X81.1856 Y14.4592
G01 X81.2378 Y14.4649
G01 X81.2896 Y14.4658
G01 X81.3826 Y14.4620
G01 X81.4495 Y14.4497
G01 X81.5062 Y14.4261
G01 X81.5728 Y14.3827
G01 X81.6655 Y14.2972
G01 X81.7262 Y14.2057
G01 X81.7611 Y14.1010
G01 X81.7714 Y13.9901
G01 X81.7629 Y13.8840
G01 X81.7363 Y13.7962
G01 X81.6857 Y13.7087
G01 X81.6346 Y13.6369
G01 X81.6310 Y13.6312
G01 X81.6286 Y13.6267
G01 X81.6246 Y13.6160
G01 X81.6227 Y13.6059
G01 X81.6223 Y13.5957
G01 X81.6237 Y13.5844
G01 X81.6260 Y13.5760
G01 X81.6300 Y13.5671
G01 X81.6943 Y13.4458
G01 X81.7652 Y13.3106
G01 X81.8644 Y13.1200
G01 X82.0280 Y12.8039
G01 X82.0395 Y10.1126
G01 X82.0429 Y9.4114
G01 X82.0470 Y8.7305
G01 X82.0486 Y8.5349
G01 X82.0498 Y8.4551
G01 X82.0508 Y8.4462
G01 X82.0528 Y8.4379
G01 X82.0557 Y8.4303
G01 X82.0602 Y8.4219
G01 X82.0652 Y8.4150
G01 X82.0719 Y8.4081
G01 X82.0799 Y8.4019
G01 X82.0882 Y8.3973
G01 X82.0962 Y8.3942
G01 X82.1055 Y8.3919
G01 X82.1307 Y8.3899
G01 X82.1790 Y8.3889
G01 X82.2510 Y8.3880
G01 X82.4515 Y8.3869
G01 X83.0163 Y8.3868
G01 X83.0258 Y8.3875
G01 X83.0356 Y8.3896
G01 X83.0445 Y8.3930
G01 X83.0532 Y8.3979
G01 X83.0607 Y8.4038
G01 X83.0677 Y8.4110
G01 X83.0732 Y8.4187
G01 X83.0771 Y8.4263
G01 X83.0799 Y8.4338
G01 X83.0815 Y8.4401
G01 X83.0825 Y8.4465
G01 X83.0829 Y8.4530
G01 X83.0923 Y10.4773
G01 X83.3310 Y10.9332
G01 X83.4109 Y11.0844
G01 X83.4854 Y11.2222
G01 X83.4887 Y11.2297
G01 X83.4912 Y11.2386
G01 X83.4927 Y11.2496
G01 X83.4922 Y11.2607
G01 X83.4912 Y11.2668
G01 X83.4897 Y11.2725
G01 X83.4855 Y11.2827
G01 X83.4806 Y11.2910
G01 X83.4478 Y11.3353
G01 X83.3965 Y11.4125
G01 X83.3672 Y11.4775
G01 X83.3521 Y11.5482
G01 X83.3471 Y11.6434
G01 X83.3540 Y11.7546
G01 X83.3758 Y11.8392
G01 X83.4156 Y11.9128
G01 X83.4800 Y11.9884
G01 X83.5539 Y12.0521
G01 X83.6270 Y12.0916
G01 X83.7121 Y12.1135
G01 X83.8217 Y12.1204
G01 X83.9287 Y12.1138
G01 X84.0108 Y12.0928
G01 X84.0818 Y12.0545
G01 X84.1568 Y11.9904
G01 X84.2303 Y11.8991
G01 X84.2741 Y11.8032
G01 X84.2943 Y11.6896
G01 X84.2957 Y11.6466
G01 X84.2880 Y11.5404
G01 X84.2642 Y11.4572
G01 X84.2195 Y11.3796
G01 X84.1644 Y11.3138
G01 X84.0756 Y11.2391
G01 X83.9744 Y11.1914
G01 X83.8699 Y11.1693
G01 X83.8264 Y11.1648
G01 X83.7864 Y11.1599
G01 X83.7494 Y11.1512
G01 X83.7430 Y11.1493
G01 X83.7356 Y11.1462
G01 X83.7081 Y11.1326
G01 X83.7007 Y11.1283
G01 X83.6951 Y11.1242
G01 X83.6679 Y11.1007
G01 X83.6614 Y11.0942
G01 X83.6315 Y11.0568
G01 X83.6274 Y11.0509
G01 X83.5947 Y10.9991
G01 X83.5553 Y10.9284
G01 X83.5072 Y10.8370
G01 X83.2799 Y10.3967
G01 X83.2757 Y10.3864
G01 X83.2732 Y10.3759
G01 X83.2725 Y10.3662
G01 X83.2725 Y8.4527
G01 X83.2735 Y8.4411
G01 X83.2765 Y8.4300
G01 X83.2811 Y8.4199
G01 X83.2867 Y8.4116
G01 X83.2931 Y8.4045
G01 X83.3009 Y8.3981
G01 X83.3091 Y8.3932
G01 X83.3184 Y8.3894
G01 X83.3277 Y8.3871
G01 X83.3377 Y8.3861
G01 X84.0335 Y8.3872
G01 X84.2305 Y8.3879
G01 X84.3952 Y8.3894
G01 X84.5281 Y8.3917
G01 X84.6276 Y8.3947
G01 X84.6982 Y8.3988
G01 X84.7387 Y8.4047
G01 X84.7489 Y8.4079
G01 X84.7577 Y8.4123
G01 X84.7720 Y8.4116
G01 X84.7790 Y8.4118
G01 X84.7875 Y8.4130
G01 X84.7964 Y8.4156
G01 X84.8418 Y8.4334
G01 X84.8484 Y8.4364
G01 X84.8546 Y8.4401
G01 X84.9010 Y8.4712
G01 X84.9070 Y8.4758
G01 X84.9201 Y8.4874
G01 X84.9242 Y8.4914
G01 X84.9284 Y8.4963
G01 X84.9605 Y8.5425
G01 X84.9645 Y8.5499
G01 X84.9676 Y8.5577
G01 X84.9736 Y8.5618
G01 X84.9788 Y8.5661
G01 X84.9835 Y8.5709
G01 X84.9885 Y8.5774
G01 X85.0077 Y8.6109
G01 X85.0110 Y8.6192
G01 X85.0220 Y8.6546
G01 X85.0237 Y8.6611
G01 X85.0246 Y8.6675
G01 X85.0294 Y8.7287
G01 X85.0276 Y8.8139
G01 X85.0255 Y8.8496
G01 X84.9949 Y9.1093
G01 X84.9365 Y9.3746
G01 X84.8543 Y9.6299
G01 X84.8052 Y9.7507
G01 X84.7776 Y9.8198
G01 X84.7649 Y9.8708
G01 X84.7640 Y9.9152
G01 X84.7753 Y9.9673
G01 X84.8026 Y10.0381
G01 X84.8470 Y10.1320
G01 X84.9058 Y10.2522
G01 X84.9547 Y10.3555
G01 X84.9983 Y10.4527
G01 X85.0398 Y10.5515
G01 X85.0833 Y10.6610
G01 X85.1402 Y10.8100
G01 X85.2454 Y11.1188
G01 X85.3379 Y11.4511
G01 X85.4175 Y11.8046
G01 X85.4816 Y12.1682
G01 X85.5290 Y12.5348
G01 X85.5488 Y12.7515
G01 X85.5666 Y13.1632
G01 X85.5554 Y13.5587
G01 X85.5145 Y13.9429
G01 X85.4446 Y14.3073
G01 X85.3460 Y14.6522
G01 X85.3440 Y14.6581
G01 X85.2176 Y14.9824
G01 X85.2149 Y14.9883
G01 X85.0579 Y15.2982
G01 X85.0239 Y15.3565
G01 X84.9093 Y15.5298
G01 X84.7678 Y15.7107
G01 X84.6118 Y15.8832
G01 X84.5398 Y15.9547
G01 X84.3084 Y16.1547
G01 X84.0536 Y16.3298
G01 X83.7835 Y16.4737
G01 X83.4975 Y16.5867
G01 X83.2018 Y16.6671
G01 X83.1399 Y16.6797
G01 X83.0325 Y16.6953
G01 X82.9023 Y16.7066
G01 X82.7542 Y16.7140
G01 X82.5974 Y16.7174
G01 X82.4409 Y16.7168
G01 X82.2910 Y16.7119
G01 X82.1548 Y16.7027
G01 X82.0447 Y16.6893
G01 X82.0361 Y16.6879
G01 X81.9143 Y16.6643
G01 X81.7960 Y16.6362
G01 X81.6886 Y16.6059
G01 X81.5978 Y16.5744
G01 X81.5391 Y16.5502
G01 X81.5222 Y16.5449
G01 X81.5131 Y16.5433
G01 X81.5066 Y16.5417
G01 X81.4854 Y16.5342
G01 X81.4491 Y16.5192
G01 X81.3970 Y16.4963
G01 X81.2762 Y16.4419
G01 X81.1606 Y16.3821
G01 X81.0291 Y16.3017
G01 X80.8949 Y16.2098
G01 X80.7625 Y16.1103
G01 X80.6370 Y16.0064
G01 X80.5303 Y15.9071
G01 X80.5106 Y15.8868
G01 X80.4086 Y15.7739
G01 X80.3080 Y15.6502
G01 X80.2159 Y15.5248
G01 X80.1388 Y15.4070
G01 X80.0804 Y15.3011
G01 X80.0558 Y15.2554
G01 X80.0242 Y15.2028
G01 X80.0127 Y15.1849
G01 X79.9763 Y15.1209
G01 X79.9468 Y15.0555
G01 X79.9196 Y14.9828
G01 X79.8963 Y14.9328
G01 X79.8920 Y14.9245
G01 X79.8730 Y14.8821
G01 X79.8477 Y14.8151
G01 X79.8180 Y14.7291
G01 X79.7871 Y14.6343
G01 X79.7563 Y14.5358
G01 X79.7278 Y14.4396
G01 X79.7043 Y14.3547
G01 X79.6872 Y14.2851
G01 X79.6687 Y14.1932
G01 X79.6523 Y14.1183
G01 X79.6347 Y14.0464
G01 X79.4878 Y14.0401
G01 X79.4002 Y14.0357
G01 X79.3368 Y14.0301
G01 X79.2936 Y14.0222
G01 X79.2855 Y14.0201
G01 X79.2534 Y14.0072
G01 X79.2456 Y14.0035
G01 X79.2388 Y13.9990
G01 X79.2169 Y13.9827
G01 X79.2116 Y13.9783
G01 X79.1869 Y13.9553
G01 X79.1659 Y13.9336
G01 X79.1512 Y13.9145
G01 X79.1475 Y13.9091
G01 X79.1324 Y13.8808
G01 X79.1299 Y13.8747
G01 X79.1201 Y13.8455
G01 X79.1180 Y13.8377
G01 X79.1099 Y13.7979
G01 X79.1034 Y13.7455
G01 X79.0985 Y13.6792
G01 X79.0951 Y13.5995
G01 X79.0927 Y13.5005
G01 X79.0912 Y13.3802
G01 X79.0904 Y13.2365
G01 X79.0901 Y13.0662
G01 X79.0900 Y11.5424
G01 X79.0907 Y11.5327
G01 X79.0931 Y11.5224
G01 X79.0973 Y11.5121
G01 X79.1354 Y11.4375
G01 X79.1637 Y11.3859
G01 X79.1679 Y11.3795
G01 X79.1977 Y11.3397
G01 X79.2017 Y11.3354
G01 X79.2060 Y11.3316
G01 X79.2397 Y11.3048
G01 X79.2462 Y11.3002
G01 X79.2550 Y11.2957
G01 X79.3015 Y11.2771
G01 X79.3113 Y11.2742
G01 X79.3760 Y11.2625
G01 X79.4627 Y11.2558
G01 X79.5737 Y11.2522
G01 X79.8492 Y11.2467
G01 X79.8873 Y11.1358
G01 X79.9099 Y11.0675
G01 X79.9272 Y11.0110
G01 X79.9365 Y10.9761
G01 X79.9384 Y10.9647
G01 X79.9453 Y10.9333
G01 X79.9471 Y10.9270
G01 X79.9644 Y10.8823
G01 X79.9829 Y10.8381
G01 X80.0059 Y10.7782
G01 X80.0319 Y10.7069
G01 X80.0436 Y10.6739
G01 X80.0695 Y10.6064
G01 X80.1071 Y10.5171
G01 X80.1527 Y10.4144
G01 X80.2021 Y10.3077
G01 X80.2436 Y10.2216
G01 X80.2936 Y10.1189
G01 X80.3298 Y10.0424
G01 X80.3537 Y9.9875
G01 X80.3672 Y9.9502
G01 X80.3728 Y9.9261
G01 X80.3739 Y9.9073
G01 X80.3723 Y9.8862
G01 X80.3621 Y9.8332
G01 X80.3469 Y9.7856
G01 X80.2502 Y9.5651
G01 X80.1804 Y9.3304
G01 X80.1335 Y9.0735
G01 X80.1327 Y9.0677
G01 X80.1120 Y8.8425
G01 X80.1099 Y8.7244
G01 X80.1102 Y8.7185
G01 X80.1189 Y8.6324
G01 X80.1214 Y8.6222
G01 X80.1353 Y8.5836
G00 Z2.0000
G00 X78.7051 Y12.8673
G01 F60.00
G01 Z-0.0200
G01 F120.00
G01 X78.7051 Y11.5516
G01 X78.7066 Y11.5366
G01 X78.7071 Y11.5120
G01 X78.7111 Y11.4878
G01 X78.7146 Y11.4549
G01 X78.7202 Y11.4322
G01 X78.7215 Y11.4253
G01 X78.7302 Y11.4023
G01 X78.7400 Y11.3707
G01 X78.7505 Y11.3484
G01 X78.7556 Y11.3351
G01 X78.7896 Y11.2686
G01 X78.7947 Y11.2595
G01 X78.7988 Y11.2508
G01 X78.8212 Y11.2100
G01 X78.8396 Y11.1831
G01 X78.8456 Y11.1735
G01 X78.8605 Y11.1480
G01 X78.8807 Y11.1208
G01 X78.8874 Y11.1133
G01 X78.9009 Y11.0961
G01 X78.9219 Y11.0752
G01 X78.9463 Y11.0486
G01 X78.9628 Y11.0344
G01 X78.9695 Y11.0279
G01 X78.9932 Y11.0091
G01 X79.0102 Y10.9980
G01 X79.0233 Y10.9884
G01 X79.0304 Y10.9826
G01 X79.0476 Y10.9734
G01 X79.0575 Y10.9675
G01 X79.0749 Y10.9564
G01 X79.0834 Y10.9530
G01 X79.0982 Y10.9461
G01 X79.1154 Y10.9370
G01 X79.1485 Y10.9238
G01 X79.2461 Y10.8949
G01 X79.2949 Y10.8861
G01 X79.3175 Y10.8841
G01 X79.3324 Y10.8821
G01 X79.3524 Y10.8783
G01 X79.4228 Y10.8729
G01 X79.4429 Y10.8721
G01 X79.4604 Y10.8698
G01 X79.4806 Y10.8648
G01 X79.4972 Y10.8590
G01 X79.5119 Y10.8522
G01 X79.5174 Y10.8493
G01 X79.5311 Y10.8409
G01 X79.5441 Y10.8314
G01 X79.5489 Y10.8274
G01 X79.5607 Y10.8164
G01 X79.5725 Y10.8032
G01 X79.5847 Y10.7864
G01 X79.5935 Y10.7711
G01 X79.6077 Y10.7395
G01 X79.6116 Y10.7287
G01 X79.6264 Y10.6931
G01 X79.6451 Y10.6442
G01 X79.6784 Y10.5525
G01 X79.6817 Y10.5441
G01 X79.6842 Y10.5363
G01 X79.7071 Y10.4766
G01 X79.7119 Y10.4658
G01 X79.7156 Y10.4553
G01 X79.7559 Y10.3597
G01 X79.8040 Y10.2516
G01 X79.8518 Y10.1484
G01 X79.8963 Y10.0557
G01 X79.9369 Y9.9724
G01 X79.9434 Y9.9570
G01 X79.9486 Y9.9411
G01 X79.9523 Y9.9249
G01 X79.9532 Y9.9190
G01 X79.9549 Y9.9040
G01 X79.9553 Y9.8888
G01 X79.9539 Y9.8677
G01 X79.9505 Y9.8484
G01 X79.9460 Y9.8323
G01 X79.9406 Y9.8181
G01 X79.9031 Y9.7321
G01 X79.8941 Y9.7048
G01 X79.8898 Y9.6935
G01 X79.8795 Y9.6689
G01 X79.8146 Y9.4503
G01 X79.8099 Y9.4266
G01 X79.8065 Y9.4126
G01 X79.8002 Y9.3917
G01 X79.7565 Y9.1515
G01 X79.7549 Y9.1332
G01 X79.7524 Y9.1162
G01 X79.7493 Y9.1008
G01 X79.7297 Y8.8880
G01 X79.7296 Y8.8737
G01 X79.7285 Y8.8552
G01 X79.7270 Y8.8431
G01 X79.7253 Y8.7420
G01 X79.7273 Y8.7158
G01 X79.7277 Y8.7025
G01 X79.7274 Y8.6784
G01 X79.7344 Y8.6083
G01 X79.7371 Y8.5918
G01 X79.7378 Y8.5842
G01 X79.7468 Y8.5457
G01 X79.7536 Y8.5116
G01 X79.7562 Y8.5044
G01 X79.7604 Y8.4890
G01 X79.7745 Y8.4497
G01 X79.7802 Y8.4365
G01 X79.7851 Y8.4233
G01 X79.8004 Y8.3946
G01 X79.8163 Y8.3614
G01 X79.8224 Y8.3523
G01 X79.8272 Y8.3441
G01 X79.8467 Y8.3203
G01 X79.8687 Y8.2909
G01 X79.8755 Y8.2842
G01 X79.8828 Y8.2760
G01 X79.9008 Y8.2594
G01 X79.9068 Y8.2532
G01 X79.9166 Y8.2416
G01 X79.9266 Y8.2276
G01 X79.9354 Y8.2173
G01 X79.9481 Y8.2034
G01 X79.9790 Y8.1749
G01 X80.0068 Y8.1480
G01 X80.0207 Y8.1367
G01 X80.0348 Y8.1264
G01 X80.1175 Y8.0780
G01 X80.2006 Y8.0492
G01 X80.2233 Y8.0455
G01 X80.2362 Y8.0420
G01 X80.2531 Y8.0385
G01 X80.2685 Y8.0345
G01 X80.2781 Y8.0315
G01 X80.2965 Y8.0293
G01 X80.3083 Y8.0275
G01 X80.3361 Y8.0219
G01 X80.3473 Y8.0209
G01 X80.3650 Y8.0204
G01 X80.3802 Y8.0187
G01 X80.4371 Y8.0165
G01 X80.5145 Y8.0144
G01 X80.6224 Y8.0122
G01 X80.8808 Y8.0085
G01 X81.0787 Y8.0066
G01 X81.7515 Y8.0013
G01 X81.8483 Y8.0100
G01 X81.8906 Y8.0224
G01 X81.9062 Y8.0263
G01 X81.9250 Y8.0291
G01 X81.9425 Y8.0300
G01 X81.9600 Y8.0293
G01 X81.9760 Y8.0272
G01 X82.0144 Y8.0203
G01 X82.0358 Y8.0150
G01 X82.0444 Y8.0142
G01 X82.0593 Y8.0123
G01 X82.0890 Y8.0070
G01 X82.1116 Y8.0064
G01 X82.1258 Y8.0051
G01 X82.1691 Y8.0042
G01 X82.3399 Y8.0025
G01 X82.5670 Y8.0019
G01 X83.0071 Y8.0019
G01 X83.0568 Y8.0068
G01 X83.1011 Y8.0107
G01 X83.1230 Y8.0172
G01 X83.1398 Y8.0213
G01 X83.1584 Y8.0240
G01 X83.1772 Y8.0248
G01 X83.1960 Y8.0238
G01 X83.2130 Y8.0211
G01 X83.2313 Y8.0165
G01 X83.2473 Y8.0115
G01 X83.3419 Y8.0013
G01 X84.0338 Y8.0023
G01 X84.2348 Y8.0031
G01 X84.4030 Y8.0046
G01 X84.5333 Y8.0069
G01 X84.6334 Y8.0099
G01 X84.6423 Y8.0106
G01 X84.6505 Y8.0106
G01 X84.7083 Y8.0139
G01 X84.7245 Y8.0163
G01 X84.7420 Y8.0179
G01 X84.7563 Y8.0183
G01 X84.7776 Y8.0213
G01 X84.7873 Y8.0234
G01 X84.7980 Y8.0249
G01 X84.8217 Y8.0304
G01 X84.8435 Y8.0327
G01 X84.8848 Y8.0438
G01 X84.9283 Y8.0546
G01 X84.9384 Y8.0579
G01 X84.9779 Y8.0734
G01 X85.0677 Y8.1196
G01 X85.1080 Y8.1467
G01 X85.1324 Y8.1668
G01 X85.1409 Y8.1732
G01 X85.1652 Y8.1904
G01 X85.1792 Y8.2040
G01 X85.1839 Y8.2080
G01 X85.2081 Y8.2359
G01 X85.2362 Y8.2664
G01 X85.2480 Y8.2816
G01 X85.2699 Y8.3132
G01 X85.2820 Y8.3319
G01 X85.3247 Y8.3896
G01 X85.3371 Y8.4113
G01 X85.3778 Y8.5029
G01 X85.3875 Y8.5342
G01 X85.3893 Y8.5412
G01 X85.3983 Y8.5873
G01 X85.4074 Y8.6315
G01 X85.4084 Y8.6379
G01 X85.4121 Y8.6855
G01 X85.4118 Y8.7076
G01 X85.4124 Y8.7230
G01 X85.4141 Y8.7426
G01 X85.4125 Y8.8145
G01 X85.4116 Y8.8270
G01 X85.4117 Y8.8385
G01 X85.4106 Y8.8580
G01 X85.4080 Y8.8783
G01 X85.4075 Y8.8965
G01 X85.3790 Y9.1399
G01 X85.3745 Y9.1610
G01 X85.3720 Y9.1764
G01 X85.3700 Y9.1954
G01 X85.3156 Y9.4433
G01 X85.3094 Y9.4627
G01 X85.3053 Y9.4784
G01 X85.3018 Y9.4960
G01 X85.2242 Y9.7368
G01 X85.2185 Y9.7503
G01 X85.2124 Y9.7676
G01 X85.2089 Y9.7796
G01 X85.1921 Y9.8209
G01 X85.1868 Y9.8362
G01 X85.1825 Y9.8533
G01 X85.1798 Y9.8707
G01 X85.1787 Y9.8883
G01 X85.1795 Y9.9074
G01 X85.1816 Y9.9235
G01 X85.1851 Y9.9393
G01 X85.1920 Y9.9601
G01 X85.1979 Y9.9736
G01 X85.2541 Y10.0886
G01 X85.3009 Y10.1875
G01 X85.3471 Y10.2902
G01 X85.3965 Y10.4070
G01 X85.4405 Y10.5178
G01 X85.4928 Y10.6541
G01 X85.4968 Y10.6647
G01 X85.5004 Y10.6760
G01 X85.5046 Y10.6862
G01 X85.6056 Y10.9823
G01 X85.6102 Y10.9998
G01 X85.6167 Y11.0177
G01 X85.7057 Y11.3372
G01 X85.7091 Y11.3534
G01 X85.7142 Y11.3702
G01 X85.7903 Y11.7080
G01 X85.7928 Y11.7236
G01 X85.7968 Y11.7398
G01 X85.8585 Y12.0892
G01 X85.8603 Y12.1048
G01 X85.8635 Y12.1210
G01 X85.9094 Y12.4755
G01 X85.9107 Y12.4909
G01 X85.9125 Y12.5025
G01 X85.9310 Y12.7041
G01 X85.9314 Y12.7201
G01 X85.9334 Y12.7370
G01 X85.9506 Y13.1351
G01 X85.9500 Y13.1486
G01 X85.9503 Y13.1675
G01 X85.9512 Y13.1789
G01 X85.9403 Y13.5604
G01 X85.9385 Y13.5756
G01 X85.9374 Y13.5936
G01 X85.9375 Y13.6068
G01 X85.8986 Y13.9716
G01 X85.8952 Y13.9882
G01 X85.8928 Y14.0053
G01 X85.8916 Y14.0201
G01 X85.8248 Y14.3681
G01 X85.8197 Y14.3858
G01 X85.8158 Y14.4026
G01 X85.8132 Y14.4182
G01 X85.7186 Y14.7491
G01 X85.7114 Y14.7676
G01 X85.7063 Y14.7833
G01 X85.7018 Y14.7999
G01 X85.5794 Y15.1136
G01 X85.5701 Y15.1322
G01 X85.5637 Y15.1469
G01 X85.5573 Y15.1640
G01 X85.4073 Y15.4604
G01 X85.3978 Y15.4762
G01 X85.3894 Y15.4936
G01 X85.3631 Y15.5389
G01 X85.3529 Y15.5539
G01 X85.3437 Y15.5705
G01 X85.2361 Y15.7332
G01 X85.2262 Y15.7457
G01 X85.2159 Y15.7602
G01 X85.2086 Y15.7720
G01 X85.0782 Y15.9386
G01 X85.0690 Y15.9485
G01 X85.0569 Y15.9630
G01 X85.0503 Y15.9722
G01 X84.9046 Y16.1332
G01 X84.8924 Y16.1450
G01 X84.8808 Y16.1585
G01 X84.8214 Y16.2176
G01 X84.8112 Y16.2261
G01 X84.7974 Y16.2392
G01 X84.7898 Y16.2472
G01 X84.5684 Y16.4387
G01 X84.5481 Y16.4531
G01 X84.5371 Y16.4617
G01 X84.5200 Y16.4765
G01 X84.2820 Y16.6399
G01 X84.2599 Y16.6522
G01 X84.2481 Y16.6595
G01 X84.2291 Y16.6725
G01 X83.9756 Y16.8075
G01 X83.9522 Y16.8172
G01 X83.9397 Y16.8231
G01 X83.9193 Y16.8339
G01 X83.6513 Y16.9399
G01 X83.6273 Y16.9468
G01 X83.6141 Y16.9514
G01 X83.5929 Y16.9597
G01 X83.3115 Y17.0361
G01 X83.3002 Y17.0382
G01 X83.2809 Y17.0429
G01 X83.2721 Y17.0457
G01 X83.2292 Y17.0544
G01 X83.2115 Y17.0567
G01 X83.1932 Y17.0608
G01 X83.1010 Y17.0743
G01 X83.0827 Y17.0756
G01 X83.0638 Y17.0788
G01 X82.9458 Y17.0891
G01 X82.9319 Y17.0896
G01 X82.9191 Y17.0911
G01 X82.7809 Y17.0980
G01 X82.7711 Y17.0981
G01 X82.7609 Y17.0988
G01 X82.5961 Y17.1023
G01 X82.4455 Y17.1016
G01 X82.4360 Y17.1011
G01 X82.4259 Y17.1013
G01 X82.2869 Y17.0968
G01 X82.2737 Y17.0958
G01 X82.2616 Y17.0957
G01 X82.1396 Y17.0874
G01 X82.1223 Y17.0851
G01 X82.1041 Y17.0843
G01 X82.0073 Y17.0724
G01 X81.9923 Y17.0697
G01 X81.9772 Y17.0682
G01 X81.9613 Y17.0654
G01 X81.8528 Y17.0444
G01 X81.8387 Y17.0408
G01 X81.8236 Y17.0383
G01 X81.7175 Y17.0131
G01 X81.7016 Y17.0084
G01 X81.6879 Y17.0056
G01 X81.5928 Y16.9787
G01 X81.5753 Y16.9724
G01 X81.5566 Y16.9675
G01 X81.4822 Y16.9417
G01 X81.4733 Y16.9377
G01 X81.4532 Y16.9301
G01 X81.4445 Y16.9275
G01 X81.4138 Y16.9147
G01 X81.4019 Y16.9103
G01 X81.3861 Y16.9058
G01 X81.3733 Y16.9028
G01 X81.3656 Y16.9000
G01 X81.3480 Y16.8925
G01 X81.3320 Y16.8873
G01 X81.2964 Y16.8724
G01 X81.2436 Y16.8492
G01 X81.1276 Y16.7970
G01 X81.1125 Y16.7890
G01 X81.0960 Y16.7819
G01 X80.9941 Y16.7293
G01 X80.9827 Y16.7221
G01 X80.9661 Y16.7130
G01 X80.9558 Y16.7081
G01 X80.8391 Y16.6367
G01 X80.8253 Y16.6270
G01 X80.8100 Y16.6181
G01 X80.6865 Y16.5336
G01 X80.6744 Y16.5242
G01 X80.6607 Y16.5153
G01 X80.5385 Y16.4234
G01 X80.5265 Y16.4131
G01 X80.5129 Y16.4034
G01 X80.4000 Y16.3099
G01 X80.3866 Y16.2971
G01 X80.3715 Y16.2851
G01 X80.2758 Y16.1959
G01 X80.2649 Y16.1844
G01 X80.2524 Y16.1734
G01 X80.2435 Y16.1642
G01 X80.2331 Y16.1525
G01 X80.2239 Y16.1435
G01 X80.1303 Y16.0399
G01 X80.1197 Y16.0265
G01 X80.1074 Y16.0135
G01 X80.0161 Y15.9012
G01 X80.0067 Y15.8880
G01 X79.9956 Y15.8749
G01 X79.9122 Y15.7615
G01 X79.9028 Y15.7466
G01 X79.8915 Y15.7319
G01 X79.8218 Y15.6252
G01 X79.8148 Y15.6122
G01 X79.8052 Y15.5966
G01 X79.7980 Y15.5862
G01 X79.7196 Y15.4431
G01 X79.6952 Y15.4027
G01 X79.6868 Y15.3875
G01 X79.6766 Y15.3724
G01 X79.6489 Y15.3240
G01 X79.6407 Y15.3057
G01 X79.6331 Y15.2912
G01 X79.6242 Y15.2761
G01 X79.6009 Y15.2247
G01 X79.5960 Y15.2105
G01 X79.5889 Y15.1930
G01 X79.5826 Y15.1802
G01 X79.5671 Y15.1387
G01 X79.5627 Y15.1280
G01 X79.5461 Y15.0920
G01 X79.5405 Y15.0813
G01 X79.5265 Y15.0501
G01 X79.5228 Y15.0396
G01 X79.5150 Y15.0212
G01 X79.5111 Y15.0133
G01 X79.4895 Y14.9559
G01 X79.4868 Y14.9475
G01 X79.4832 Y14.9384
G01 X79.4554 Y14.8581
G01 X79.4217 Y14.7552
G01 X79.3892 Y14.6510
G01 X79.3533 Y14.5292
G01 X79.3487 Y14.5155
G01 X79.3464 Y14.5096
G01 X79.3398 Y14.4950
G01 X79.3301 Y14.4784
G01 X79.3208 Y14.4653
G01 X79.3169 Y14.4605
G01 X79.3061 Y14.4485
G01 X79.2943 Y14.4376
G01 X79.2895 Y14.4336
G01 X79.2765 Y14.4241
G01 X79.2600 Y14.4143
G01 X79.2426 Y14.4062
G01 X79.2259 Y14.4004
G01 X79.1331 Y14.3738
G01 X79.1164 Y14.3670
G01 X79.1002 Y14.3590
G01 X79.0912 Y14.3554
G01 X79.0632 Y14.3391
G01 X79.0297 Y14.3213
G01 X79.0220 Y14.3156
G01 X79.0072 Y14.3064
G01 X78.9945 Y14.2969
G01 X78.9775 Y14.2816
G01 X78.9658 Y14.2721
G01 X78.9493 Y14.2600
G01 X78.9319 Y14.2437
G01 X78.9218 Y14.2331
G01 X78.9101 Y14.2227
G01 X78.9021 Y14.2146
G01 X78.8846 Y14.1930
G01 X78.8763 Y14.1836
G01 X78.8584 Y14.1650
G01 X78.8518 Y14.1564
G01 X78.8427 Y14.1423
G01 X78.8296 Y14.1209
G01 X78.8038 Y14.0827
G01 X78.7977 Y14.0712
G01 X78.7827 Y14.0346
G01 X78.7640 Y13.9938
G01 X78.7582 Y13.9766
G01 X78.7523 Y13.9510
G01 X78.7485 Y13.9375
G01 X78.7406 Y13.9131
G01 X78.7353 Y13.8873
G01 X78.7337 Y13.8729
G01 X78.7305 Y13.8540
G01 X78.7274 Y13.8407
G01 X78.7227 Y13.8035
G01 X78.7216 Y13.7854
G01 X78.7192 Y13.7698
G01 X78.7153 Y13.7166
G01 X78.7150 Y13.7056
G01 X78.7140 Y13.6949
G01 X78.7105 Y13.6116
G01 X78.7079 Y13.5043
G01 X78.7064 Y13.3818
G01 X78.7056 Y13.2393
G01 X78.7051 Y12.8673
G00 Z2.0000
G00 X74.7230 Y18.3985
G01 F60.00
G01 Z-0.0200
G01 F120.00
G01 X74.8241 Y18.4036
G01 X74.9271 Y18.4188
G01 X75.0282 Y18.4442
G01 X75.1262 Y18.4793
G01 X75.2204 Y18.5238
G01 X75.3098 Y18.5774
G01 X75.3934 Y18.6394
G01 X75.4706 Y18.7094
G01 X75.5406 Y18.7866
G01 X75.6026 Y18.8702
G01 X75.6562 Y18.9596
G01 X75.7007 Y19.0538
G01 X75.7358 Y19.1518
G01 X75.7612 Y19.2529
G01 X75.7764 Y19.3559
G01 X75.7815 Y19.4600
G01 X75.7764 Y19.5641
G01 X75.7612 Y19.6671
G01 X75.7358 Y19.7682
G01 X75.7007 Y19.8662
G01 X75.6562 Y19.9604
G01 X75.6026 Y20.0498
G01 X75.5406 Y20.1334
G01 X75.4706 Y20.2106
G01 X75.3934 Y20.2806
G01 X75.3098 Y20.3426
G01 X75.2204 Y20.3962
G01 X75.1262 Y20.4407
G01 X75.0282 Y20.4758
G01 X74.9271 Y20.5012
G01 X74.8241 Y20.5164
G01 X74.7200 Y20.5215
G01 X74.6159 Y20.5164
G01 X74.5129 Y20.5012
G01 X74.4118 Y20.4758
G01 X74.3138 Y20.4407
G01 X74.2196 Y20.3962
G01 X74.1302 Y20.3426
G01 X74.0466 Y20.2806
G01 X73.9694 Y20.2106
G01 X73.8994 Y20.1334
G01 X73.8374 Y20.0498
G01 X73.7838 Y19.9604
G01 X73.7393 Y19.8662
G01 X73.7042 Y19.7682
G01 X73.6788 Y19.6671
G01 X73.6636 Y19.5641
G01 X73.6585 Y19.4600
G01 X73.6636 Y19.3559
G01 X73.6788 Y19.2529
G01 X73.7042 Y19.1518
G01 X73.7393 Y19.0538
G01 X73.7838 Y18.9596
G01 X73.8374 Y18.8702
G01 X73.8994 Y18.7866
G01 X73.9694 Y18.7094
G01 X74.0466 Y18.6394
G01 X74.1302 Y18.5774
G01 X74.2196 Y18.5238
G01 X74.3138 Y18.4793
G01 X74.4118 Y18.4442
G01 X74.5129 Y18.4188
G01 X74.6159 Y18.4036
G01 X74.7170 Y18.3985
G01 X74.7230 Y18.3985
G00 Z2.0000
G00 X74.3166 Y21.0182
G01 F60.00
G01 Z-0.0200
G01 F120.00
G01 X74.4118 Y20.9842
G01 X74.5129 Y20.9588
G01 X74.6159 Y20.9436
G01 X74.7200 Y20.9385
G01 X74.8241 Y20.9436
G01 X74.9271 Y20.9588
G01 X75.0282 Y20.9842
G01 X75.1262 Y21.0193
G01 X75.2204 Y21.0638
G01 X75.3098 Y21.1174
G01 X75.3934 Y21.1794
G01 X75.4706 Y21.2494
G01 X75.5406 Y21.3266
G01 X75.6026 Y21.4102
G01 X75.6562 Y21.4996
G01 X75.7007 Y21.5938
G01 X75.7358 Y21.6918
G01 X75.7612 Y21.7929
G01 X75.7764 Y21.8959
G01 X75.7815 Y22.0000
G01 X75.7764 Y22.1041
G01 X75.7612 Y22.2071
G01 X75.7358 Y22.3082
G01 X75.7007 Y22.4062
G01 X75.6562 Y22.5004
G01 X75.6026 Y22.5898
G01 X75.5406 Y22.6734
G01 X75.4706 Y22.7506
G01 X75.3934 Y22.8206
G01 X75.3098 Y22.8826
G01 X75.2204 Y22.9362
G01 X75.1262 Y22.9807
G01 X75.0282 Y23.0158
G01 X74.9271 Y23.0412
G01 X74.8241 Y23.0564
G01 X74.7200 Y23.0615
G01 X74.6159 Y23.0564
G01 X74.5129 Y23.0412
G01 X74.4118 Y23.0158
G01 X74.3138 Y22.9807
G01 X74.2196 Y22.9362
G01 X74.1302 Y22.8826
G01 X74.0466 Y22.8206
G01 X73.9694 Y22.7506
G01 X73.8994 Y22.6734
G01 X73.8374 Y22.5898
G01 X73.7838 Y22.5004
G01 X73.7393 Y22.4062
G01 X73.7042 Y22.3082
G01 X73.6788 Y22.2071
G01 X73.6636 Y22.1041
G01 X73.6585 Y22.0000
G01 X73.6636 Y21.8959
G01 X73.6788 Y21.7929
G01 X73.7042 Y21.6918
G01 X73.7393 Y21.5938
G01 X73.7838 Y21.4996
G01 X73.8374 Y21.4102
G01 X73.8994 Y21.3266
G01 X73.9694 Y21.2494
G01 X74.0466 Y21.1794
G01 X74.1302 Y21.1174
G01 X74.2196 Y21.0638
G01 X74.3110 Y21.0205
G01 X74.3166 Y21.0182
G00 Z2.0000
G00 X74.3166 Y23.5582
G01 F60.00
G01 Z-0.0200
G01 F120.00
G01 X74.4118 Y23.5242
G01 X74.5129 Y23.4988
G01 X74.6159 Y23.4836
G01 X74.7200 Y23.4785
G01 X74.8241 Y23.4836
G01 X74.9271 Y23.4988
G01 X75.0282 Y23.5242
G01 X75.1262 Y23.5593
G01 X75.2204 Y23.6038
G01 X75.3098 Y23.6574
G01 X75.3934 Y23.7194
G01 X75.4706 Y23.7894
G01 X75.5406 Y23.8666
G01 X75.6026 Y23.9502
G01 X75.6562 Y24.0396
G01 X75.7007 Y24.1338
G01 X75.7358 Y24.2318
G01 X75.7612 Y24.3329
G01 X75.7764 Y24.4359
G01 X75.7815 Y24.5400
G01 X75.7764 Y24.6441
G01 X75.7612 Y24.7471
G01 X75.7358 Y24.8482
G01 X75.7007 Y24.9462
G01 X75.6562 Y25.0404
G01 X75.6026 Y25.1298
G01 X75.5406 Y25.2134
G01 X75.4706 Y25.2906
G01 X75.3934 Y25.3606
G01 X75.3098 Y25.4226
G01 X75.2204 Y25.4762
G01 X75.1262 Y25.5207
G01 X75.0282 Y25.5558
G01 X74.9271 Y25.5812
G01 X74.8241 Y25.5964
G01 X74.7200 Y25.6015
G01 X74.6159 Y25.5964
G01 X74.5129 Y25.5812
G01 X74.4118 Y25.5558
G01 X74.3138 Y25.5207
G01 X74.2196 Y25.4762
G01 X74.1302 Y25.4226
G01 X74.0466 Y25.3606
G01 X73.9694 Y25.2906
G01 X73.8994 Y25.2134
G01 X73.8374 Y25.1298
G01 X73.7838 Y25.0404
G01 X73.7393 Y24.9462
G01 X73.7042 Y24.8482
G01 X73.6788 Y24.7471
G01 X73.6636 Y24.6441
G01 X73.6585 Y24.5400
G01 X73.6636 Y24.4359
G01 X73.6788 Y24.3329
G01 X73.7042 Y24.2318
G01 X73.7393 Y24.1338
G01 X73.7838 Y24.0396
G01 X73.8374 Y23.9502
G01 X73.8994 Y23.8666
G01 X73.9694 Y23.7894
G01 X74.0466 Y23.7194
G01 X74.1302 Y23.6574
G01 X74.2196 Y23.6038
G01 X74.3110 Y23.5605
G01 X74.3166 Y23.5582
G00 Z2.0000
G00 X74.3166 Y26.0982
G01 F60.00
G01 Z-0.0200
G01 F120.00
G01 X74.4118 Y26.0642
G01 X74.5129 Y26.0388
G01 X74.6159 Y26.0236
G01 X74.7200 Y26.0185
G01 X74.8241 Y26.0236
G01 X74.9271 Y26.0388
G01 X75.0282 Y26.0642
G01 X75.1262 Y26.0993
G01 X75.2204 Y26.1438
G01 X75.3098 Y26.1974
G01 X75.3934 Y26.2594
G01 X75.4706 Y26.3294
G01 X75.5406 Y26.4066
G01 X75.6026 Y26.4902
G01 X75.6562 Y26.5796
G01 X75.7007 Y26.6738
G01 X75.7358 Y26.7718
G01 X75.7612 Y26.8729
G01 X75.7764 Y26.9759
G01 X75.7815 Y27.0800
G01 X75.7764 Y27.1841
G01 X75.7612 Y27.2871
G01 X75.7358 Y27.3882
G01 X75.7007 Y27.4862
G01 X75.6562 Y27.5804
G01 X75.6026 Y27.6698
G01 X75.5406 Y27.7534
G01 X75.4706 Y27.8306
G01 X75.3934 Y27.9006
G01 X75.3098 Y27.9626
G01 X75.2204 Y28.0162
G01 X75.1262 Y28.0607
G01 X75.0282 Y28.0958
G01 X74.9271 Y28.1212
G01 X74.8241 Y28.1364
G01 X74.7200 Y28.1415
G01 X74.6159 Y28.1364
G01 X74.5129 Y28.1212
G01 X74.4118 Y28.0958
G01 X74.3138 Y28.0607
G01 X74.2196 Y28.0162
G01 X74.1302 Y27.9626
G01 X74.0466 Y27.9006
G01 X73.9694 Y27.8306
G01 X73.8994 Y27.7534
G01 X73.8374 Y27.6698
G01 X73.7838 Y27.5804
G01 X73.7393 Y27.4862
G01 X73.7042 Y27.3882
G01 X73.6788 Y27.2871
G01 X73.6636 Y27.1841
G01 X73.6585 Y27.0800
G01 X73.6636 Y26.9759
G01 X73.6788 Y26.8729
G01 X73.7042 Y26.7718
G01 X73.7393 Y26.6738
G01 X73.7838 Y26.5796
G01 X73.8374 Y26.4902
G01 X73.8994 Y26.4066
G01 X73.9694 Y26.3294
G01 X74.0466 Y26.2594
G01 X74.1302 Y26.1974
G01 X74.2196 Y26.1438
G01 X74.3110 Y26.1005
G01 X74.3166 Y26.0982
G00 Z2.0000
G00 X74.3166 Y28.6382
G01 F60.00
G01 Z-0.0200
G01 F120.00
G01 X74.4118 Y28.6042
G01 X74.5129 Y28.5788
G01 X74.6159 Y28.5636
G01 X74.7200 Y28.5585
G01 X74.8241 Y28.5636
G01 X74.9271 Y28.5788
G01 X75.0282 Y28.6042
G01 X75.1262 Y28.6393
G01 X75.2204 Y28.6838
G01 X75.3098 Y28.7374
G01 X75.3934 Y28.7994
G01 X75.4706 Y28.8694
G01 X75.5406 Y28.9466
G01 X75.6026 Y29.0302
G01 X75.6562 Y29.1196
G01 X75.7007 Y29.2138
G01 X75.7358 Y29.3118
G01 X75.7612 Y29.4129
G01 X75.7764 Y29.5159
G01 X75.7815 Y29.6200
G01 X75.7764 Y29.7241
G01 X75.7612 Y29.8271
G01 X75.7358 Y29.9282
G01 X75.7007 Y30.0262
G01 X75.6562 Y30.1204
G01 X75.6026 Y30.2098
G01 X75.5406 Y30.2934
G01 X75.4706 Y30.3706
G01 X75.3934 Y30.4406
G01 X75.3098 Y30.5026
G01 X75.2204 Y30.5562
G01 X75.1262 Y30.6007
G01 X75.0282 Y30.6358
G01 X74.9271 Y30.6612
G01 X74.8241 Y30.6764
G01 X74.7200 Y30.6815
G01 X74.6159 Y30.6764
G01 X74.5129 Y30.6612
G01 X74.4118 Y30.6358
G01 X74.3138 Y30.6007
G01 X74.2196 Y30.5562
G01 X74.1302 Y30.5026
G01 X74.0466 Y30.4406
G01 X73.9694 Y30.3706
G01 X73.8994 Y30.2934
G01 X73.8374 Y30.2098
G01 X73.7838 Y30.1204
G01 X73.7393 Y30.0262
G01 X73.7042 Y29.9282
G01 X73.6788 Y29.8271
G01 X73.6636 Y29.7241
G01 X73.6585 Y29.6200
G01 X73.6636 Y29.5159
G01 X73.6788 Y29.4129
G01 X73.7042 Y29.3118
G01 X73.7393 Y29.2138
G01 X73.7838 Y29.1196
G01 X73.8374 Y29.0302
G01 X73.8994 Y28.9466
G01 X73.9694 Y28.8694
G01 X74.0466 Y28.7994
G01 X74.1302 Y28.7374
G01 X74.2196 Y28.6838
G01 X74.3110 Y28.6405
G01 X74.3166 Y28.6382
G00 Z2.0000
G00 X73.7200 Y31.0985
G01 F60.00
G01 Z-0.0200
G01 F120.00
G01 X75.7200 Y31.0985
G01 X75.7260 Y31.0987
G01 X75.7320 Y31.0996
G01 X75.7379 Y31.1011
G01 X75.7449 Y31.1037
G01 X75.7503 Y31.1064
G01 X75.7554 Y31.1097
G01 X75.7602 Y31.1134
G01 X75.7646 Y31.1176
G01 X75.7685 Y31.1221
G01 X75.7720 Y31.1271
G01 X75.7750 Y31.1323
G01 X75.7774 Y31.1378
G01 X75.7793 Y31.1436
G01 X75.7806 Y31.1495
G01 X75.7815 Y31.1600
G01 X75.7815 Y33.1600
G01 X75.7813 Y33.1660
G01 X75.7804 Y33.1720
G01 X75.7789 Y33.1779
G01 X75.7763 Y33.1849
G01 X75.7736 Y33.1903
G01 X75.7703 Y33.1954
G01 X75.7666 Y33.2002
G01 X75.7624 Y33.2046
G01 X75.7542 Y33.2112
G01 X75.7490 Y33.2143
G01 X75.7436 Y33.2169
G01 X75.7379 Y33.2189
G01 X75.7320 Y33.2204
G01 X75.7260 Y33.2213
G01 X75.7200 Y33.2215
G01 X73.7200 Y33.2215
G01 X73.7140 Y33.2213
G01 X73.7080 Y33.2204
G01 X73.7021 Y33.2189
G01 X73.6964 Y33.2169
G01 X73.6897 Y33.2136
G01 X73.6846 Y33.2103
G01 X73.6798 Y33.2066
G01 X73.6754 Y33.2024
G01 X73.6715 Y33.1979
G01 X73.6680 Y33.1929
G01 X73.6650 Y33.1877
G01 X73.6626 Y33.1822
G01 X73.6607 Y33.1764
G01 X73.6594 Y33.1705
G01 X73.6585 Y33.1600
G01 X73.6585 Y31.1585
G01 X73.6589 Y31.1525
G01 X73.6599 Y31.1465
G01 X73.6616 Y31.1407
G01 X73.6637 Y31.1351
G01 X73.6664 Y31.1297
G01 X73.6697 Y31.1246
G01 X73.6734 Y31.1198
G01 X73.6776 Y31.1154
G01 X73.6821 Y31.1115
G01 X73.6871 Y31.1080
G01 X73.6923 Y31.1050
G01 X73.6978 Y31.1026
G01 X73.7080 Y31.0996
G01 X73.7140 Y31.0987
G01 X73.7200 Y31.0985
G00 Z2.0000
G00 X79.1126 Y32.7559
G01 F60.00
G01 Z-0.0200
G01 F120.00
G01 X79.1682 Y32.7123
G01 X79.1733 Y32.7089
G01 X79.1830 Y32.7032
G01 X79.1905 Y32.6995
G01 X79.2066 Y32.6934
G01 X79.2310 Y32.6875
G01 X79.2600 Y32.6834
G01 X79.2922 Y32.6805
G01 X79.3353 Y32.6780
G01 X79.3899 Y32.6759
G01 X79.4577 Y32.6742
G01 X79.5418 Y32.6728
G01 X79.6432 Y32.6717
G01 X79.9058 Y32.6702
G01 X80.2609 Y32.6695
G01 X80.7234 Y32.6692
G01 X82.0687 Y32.6695
G01 X82.4697 Y32.6704
G01 X82.7712 Y32.6719
G01 X82.9876 Y32.6744
G01 X83.0685 Y32.6760
G01 X83.1331 Y32.6779
G01 X83.1844 Y32.6802
G01 X83.2239 Y32.6829
G01 X83.2548 Y32.6863
G01 X83.2805 Y32.6912
G01 X83.2967 Y32.6966
G01 X83.3034 Y32.6995
G01 X83.3102 Y32.7034
G01 X83.3185 Y32.7091
G01 X83.3235 Y32.7133
G01 X83.3281 Y32.7179
G01 X83.3333 Y32.7245
G01 X83.3443 Y32.7411
G01 X83.3492 Y32.7499
G01 X83.3524 Y32.7583
G01 X83.3611 Y32.7901
G01 X83.3669 Y32.8377
G01 X83.3702 Y32.9067
G01 X83.3715 Y32.9949
G01 X83.3718 Y33.0717
G01 X83.3710 Y33.1905
G01 X83.3676 Y33.2817
G01 X83.3606 Y33.3475
G01 X83.3597 Y33.3535
G01 X83.3465 Y33.4025
G01 X83.3442 Y33.4090
G01 X83.3412 Y33.4152
G01 X83.3198 Y33.4487
G01 X83.3146 Y33.4553
G01 X83.3094 Y33.4606
G01 X83.3027 Y33.4659
G01 X83.2732 Y33.4852
G01 X83.2648 Y33.4894
G01 X83.2534 Y33.4931
G01 X83.2904 Y33.5660
G01 X83.3682 Y33.7536
G01 X83.3710 Y33.7621
G01 X83.4197 Y33.9603
G01 X83.4209 Y33.9661
G01 X83.4389 Y34.1695
G01 X83.4392 Y34.1855
G01 X83.4228 Y34.4078
G01 X83.4213 Y34.4176
G01 X83.3746 Y34.6223
G01 X83.3730 Y34.6280
G01 X83.2962 Y34.8221
G01 X83.2937 Y34.8275
G01 X83.1893 Y35.0047
G01 X83.1834 Y35.0133
G01 X83.0559 Y35.1679
G01 X83.0519 Y35.1723
G01 X82.8979 Y35.3091
G01 X82.8898 Y35.3153
G01 X82.7137 Y35.4282
G01 X82.5163 Y35.5165
G01 X82.5096 Y35.5191
G01 X82.2956 Y35.5787
G01 X82.2528 Y35.5870
G01 X82.0161 Y35.6121
G01 X82.0064 Y35.6124
G01 X81.7725 Y35.6025
G01 X81.5431 Y35.5587
G01 X81.5366 Y35.5571
G01 X81.4463 Y35.5301
G01 X81.3685 Y35.5033
G01 X81.2995 Y35.4753
G01 X81.2382 Y35.4448
G01 X81.1718 Y35.4055
G01 X81.0895 Y35.3520
G01 X81.0570 Y35.3301
G01 X80.9985 Y35.2868
G01 X80.9347 Y35.2335
G01 X80.8722 Y35.1763
G01 X80.8152 Y35.1194
G01 X80.7727 Y35.0716
G01 X80.7458 Y35.0326
G01 X80.7431 Y35.0280
G01 X80.7400 Y35.0215
G01 X80.7361 Y35.0091
G01 X80.7304 Y34.9951
G01 X80.7111 Y34.9617
G01 X80.6930 Y34.9333
G01 X80.6583 Y34.8736
G01 X80.6266 Y34.8055
G01 X80.6019 Y34.7373
G01 X80.5892 Y34.7101
G01 X80.5833 Y34.7000
G01 X80.5649 Y34.6582
G01 X80.5625 Y34.6518
G01 X80.5607 Y34.6452
G01 X80.5444 Y34.5675
G01 X80.5317 Y34.4646
G01 X80.5223 Y34.3352
G01 X80.5174 Y34.2194
G01 X80.5149 Y34.0910
G01 X80.5178 Y33.9812
G01 X80.5277 Y33.8897
G01 X80.5473 Y33.8023
G01 X80.5765 Y33.7173
G01 X80.6160 Y33.6259
G01 X80.6661 Y33.5184
G01 X80.5299 Y33.5161
G01 X80.2784 Y33.5141
G01 X80.0207 Y33.5135
G01 X79.2762 Y33.5135
G01 X79.2694 Y33.5131
G01 X79.2611 Y33.5117
G01 X79.2545 Y33.5098
G01 X79.2467 Y33.5066
G01 X79.2390 Y33.5021
G01 X79.2323 Y33.4969
G01 X79.1101 Y33.3895
G01 X79.1031 Y33.3815
G01 X79.0973 Y33.3721
G01 X79.0935 Y33.3632
G01 X79.0909 Y33.3529
G01 X79.0900 Y33.3418
G01 X79.0900 Y32.8044
G01 X79.0905 Y32.7977
G01 X79.0916 Y32.7911
G01 X79.0935 Y32.7847
G01 X79.0959 Y32.7785
G01 X79.0990 Y32.7725
G01 X79.1026 Y32.7669
G01 X79.1068 Y32.7617
G01 X79.1126 Y32.7559
G00 Z2.0000
G00 X81.9775 Y33.5136
G01 F60.00
G01 Z-0.0200
G01 F120.00
G01 X82.0771 Y33.5170
G01 X82.1937 Y33.5345
G01 X82.2895 Y33.5676
G01 X82.3761 Y33.6197
G01 X82.4641 Y33.6968
G01 X82.4798 Y33.7131
G01 X82.5312 Y33.7766
G01 X82.5652 Y33.8395
G01 X82.5873 Y33.9132
G01 X82.5996 Y34.0084
G01 X82.6032 Y34.1336
G01 X82.6021 Y34.2195
G01 X82.5987 Y34.2741
G01 X82.5922 Y34.3114
G01 X82.5811 Y34.3445
G01 X82.5623 Y34.3852
G01 X82.5387 Y34.4273
G01 X82.4651 Y34.5232
G01 X82.3752 Y34.6067
G01 X82.2767 Y34.6697
G01 X82.2401 Y34.6868
G01 X82.2120 Y34.6968
G01 X82.1812 Y34.7031
G01 X82.1366 Y34.7069
G01 X82.0703 Y34.7086
G01 X81.9204 Y34.7089
G01 X81.8385 Y34.7075
G01 X81.7806 Y34.7039
G01 X81.7387 Y34.6977
G01 X81.7025 Y34.6881
G01 X81.6621 Y34.6733
G01 X81.6443 Y34.6655
G01 X81.5532 Y34.6100
G01 X81.4688 Y34.5350
G01 X81.3993 Y34.4490
G01 X81.3521 Y34.3598
G01 X81.3500 Y34.3537
G01 X81.3247 Y34.2528
G01 X81.3125 Y34.1414
G01 X81.3139 Y34.0328
G01 X81.3295 Y33.9398
G01 X81.3343 Y33.9232
G01 X81.3647 Y33.8398
G01 X81.4014 Y33.7746
G01 X81.4551 Y33.7079
G01 X81.4880 Y33.6742
G01 X81.5830 Y33.6022
G01 X81.6915 Y33.5529
G01 X81.8211 Y33.5234
G01 X81.9775 Y33.5136
G00 Z2.0000
G00 X83.3016 Y32.1706
G01 F60.00
G01 Z-0.0200
G01 F120.00
G01 X83.2897 Y32.1780
G01 X83.2836 Y32.1812
G01 X83.2773 Y32.1838
G01 X83.2597 Y32.1898
G01 X83.2318 Y32.1955
G01 X83.1987 Y32.1993
G01 X83.1557 Y32.2022
G01 X83.1002 Y32.2045
G01 X83.0293 Y32.2062
G01 X82.9407 Y32.2075
G01 X82.6992 Y32.2090
G01 X82.1428 Y32.2096
G01 X80.7005 Y32.2096
G01 X80.6926 Y32.2091
G01 X80.6848 Y32.2077
G01 X80.6767 Y32.2052
G01 X80.6682 Y32.2013
G01 X80.6611 Y32.1967
G01 X80.6539 Y32.1906
G01 X80.6496 Y32.1859
G01 X80.6057 Y32.1338
G01 X80.5869 Y32.1101
G01 X80.5817 Y32.1023
G01 X80.5699 Y32.0811
G01 X80.5668 Y32.0748
G01 X80.5639 Y32.0668
G01 X80.5547 Y32.0335
G01 X80.5493 Y31.9869
G01 X80.5470 Y31.9250
G01 X80.5463 Y31.8426
G01 X80.5462 Y31.5301
G01 X80.5467 Y31.5221
G01 X80.5482 Y31.5141
G01 X80.5508 Y31.5060
G01 X80.5541 Y31.4987
G01 X80.5583 Y31.4919
G01 X80.5637 Y31.4852
G01 X80.6826 Y31.3662
G01 X80.6917 Y31.3589
G01 X80.7018 Y31.3534
G01 X80.7080 Y31.3510
G01 X80.7128 Y31.3496
G01 X80.7188 Y31.3485
G01 X80.7253 Y31.3478
G01 X83.2407 Y31.3568
G01 X83.2473 Y31.3572
G01 X83.2552 Y31.3585
G01 X83.2648 Y31.3615
G01 X83.2735 Y31.3656
G01 X83.2818 Y31.3713
G01 X83.2889 Y31.3777
G01 X83.3262 Y31.4237
G01 X83.3401 Y31.4442
G01 X83.3443 Y31.4514
G01 X83.3471 Y31.4579
G01 X83.3563 Y31.4822
G01 X83.3588 Y31.4915
G01 X83.3654 Y31.5300
G01 X83.3693 Y31.5841
G01 X83.3711 Y31.6581
G01 X83.3717 Y31.7564
G01 X83.3715 Y31.8951
G01 X83.3702 Y31.9742
G01 X83.3671 Y32.0335
G01 X83.3611 Y32.0765
G01 X83.3521 Y32.1057
G01 X83.3487 Y32.1142
G01 X83.3445 Y32.1219
G01 X83.3331 Y32.1394
G01 X83.3288 Y32.1451
G01 X83.3169 Y32.1577
G01 X83.3078 Y32.1659
G01 X83.3016 Y32.1706
G00 Z2.0000
G00 X84.5691 Y31.9387
G01 F60.00
G01 Z-0.0200
G01 F120.00
G01 X84.5674 Y31.9453
G01 X84.5646 Y31.9527
G01 X84.5193 Y32.0540
G01 X84.5156 Y32.0610
G01 X84.5109 Y32.0680
G01 X84.4383 Y32.1602
G01 X84.4342 Y32.1645
G01 X84.4292 Y32.1690
G01 X84.3304 Y32.2449
G01 X84.3240 Y32.2492
G01 X84.2945 Y32.2655
G01 X84.2853 Y32.2695
G01 X84.1778 Y32.3068
G01 X84.1699 Y32.3090
G01 X84.1614 Y32.3103
G01 X84.0451 Y32.3197
G01 X84.0364 Y32.3198
G01 X84.0291 Y32.3190
G01 X83.9144 Y32.3005
G01 X83.9073 Y32.2989
G01 X83.9020 Y32.2972
G01 X83.8286 Y32.2680
G01 X83.8210 Y32.2644
G01 X83.7374 Y32.2095
G01 X83.7314 Y32.2050
G01 X83.6577 Y32.1346
G01 X83.6536 Y32.1303
G01 X83.6498 Y32.1256
G01 X83.5969 Y32.0524
G01 X83.5930 Y32.0462
G01 X83.5905 Y32.0413
G01 X83.5651 Y31.9825
G01 X83.5633 Y31.9774
G01 X83.5616 Y31.9707
G01 X83.5492 Y31.8953
G01 X83.5452 Y31.8052
G01 X83.5490 Y31.7098
G01 X83.5495 Y31.7036
G01 X83.5607 Y31.6216
G01 X83.5620 Y31.6158
G01 X83.5746 Y31.5700
G01 X83.5789 Y31.5606
G01 X83.6225 Y31.4821
G01 X83.6262 Y31.4762
G01 X83.6315 Y31.4696
G01 X83.7009 Y31.3933
G01 X83.7095 Y31.3858
G01 X83.7953 Y31.3221
G01 X83.8015 Y31.3182
G01 X83.8279 Y31.3035
G01 X83.8344 Y31.3004
G01 X83.9220 Y31.2701
G01 X83.9286 Y31.2682
G01 X83.9353 Y31.2670
G01 X84.0334 Y31.2547
G01 X84.0399 Y31.2542
G01 X84.1438 Y31.2586
G01 X84.1503 Y31.2593
G01 X84.1568 Y31.2605
G01 X84.2434 Y31.2819
G01 X84.2512 Y31.2843
G01 X84.2702 Y31.2925
G01 X84.2771 Y31.2962
G01 X84.3845 Y31.3642
G01 X84.3905 Y31.3684
G01 X84.3957 Y31.3730
G01 X84.4784 Y31.4593
G01 X84.4832 Y31.4648
G01 X84.4881 Y31.4721
G01 X84.5464 Y31.5736
G01 X84.5487 Y31.5789
G01 X84.5506 Y31.5843
G01 X84.5817 Y31.6901
G01 X84.5833 Y31.6970
G01 X84.5843 Y31.7054
G01 X84.5900 Y31.8144
G01 X84.5899 Y31.8229
G01 X84.5890 Y31.8299
G01 X84.5691 Y31.9387
G00 Z2.0000
G00 X80.5462 Y28.7903
G01 F60.00
G01 Z-0.0200
G01 F120.00
G01 X80.5464 Y28.6879
G01 X80.5476 Y28.6113
G01 X80.5505 Y28.5569
G01 X80.5561 Y28.5184
G01 X80.5585 Y28.5087
G01 X80.5675 Y28.4831
G01 X80.5713 Y28.4749
G01 X80.5744 Y28.4698
G01 X80.5871 Y28.4515
G01 X80.5927 Y28.4444
G01 X80.6073 Y28.4292
G01 X80.6489 Y28.3876
G01 X80.6549 Y28.3823
G01 X80.6619 Y28.3775
G01 X80.6705 Y28.3732
G01 X80.6795 Y28.3702
G01 X80.6894 Y28.3684
G01 X80.6959 Y28.3681
G01 X84.7117 Y28.3682
G01 X84.7185 Y28.3688
G01 X84.7262 Y28.3705
G01 X84.7337 Y28.3730
G01 X84.7395 Y28.3756
G01 X84.7462 Y28.3797
G01 X84.7524 Y28.3845
G01 X84.7574 Y28.3892
G01 X84.7624 Y28.3953
G01 X84.7920 Y28.4378
G01 X84.8059 Y28.4657
G01 X84.8079 Y28.4706
G01 X84.8099 Y28.4770
G01 X84.8182 Y28.5138
G01 X84.8240 Y28.5708
G01 X84.8268 Y28.6446
G01 X84.8279 Y28.7436
G01 X84.8280 Y28.7863
G01 X84.8278 Y28.8895
G01 X84.8267 Y28.9668
G01 X84.8240 Y29.0213
G01 X84.8185 Y29.0606
G01 X84.8163 Y29.0700
G01 X84.8079 Y29.0945
G01 X84.8057 Y29.1000
G01 X84.8031 Y29.1053
G01 X84.7883 Y29.1275
G01 X84.7833 Y29.1341
G01 X84.7675 Y29.1508
G01 X84.7243 Y29.1940
G01 X84.7166 Y29.2003
G01 X84.7084 Y29.2053
G01 X84.6991 Y29.2091
G01 X84.6898 Y29.2114
G01 X84.6783 Y29.2124
G01 X83.9241 Y29.2124
G01 X83.6230 Y29.2132
G01 X83.3793 Y29.2152
G01 X83.2783 Y29.2167
G01 X83.3476 Y29.3554
G01 X83.3502 Y29.3612
G01 X83.4057 Y29.5404
G01 X83.4079 Y29.5501
G01 X83.4357 Y29.7351
G01 X83.4363 Y29.7438
G01 X83.4365 Y29.9292
G01 X83.4363 Y29.9352
G01 X83.4075 Y30.1193
G01 X83.4033 Y30.1366
G01 X83.3426 Y30.3135
G01 X83.3404 Y30.3191
G01 X83.3377 Y30.3244
G01 X83.2530 Y30.4755
G01 X83.2495 Y30.4811
